; generated by PrusaSlicer 2.9.5 on 2026-06-24 at 21:57:14 UTC


;
;

;
;

;
;

;
;
; 

; external perimeters extrusion width = 0.45mm
; perimeters extrusion width = 0.45mm
; infill extrusion width = 0.45mm
; solid infill extrusion width = 0.45mm
; top infill extrusion width = 0.42mm
; support material extrusion width = 0.40mm
; first layer extrusion width = 0.50mm

M73 P0 R18
M73 Q0 S18
M201 X4000 Y4000 Z400 E5000 ; sets maximum accelerations, mm/sec^2
M203 X400 Y400 Z12 E80 ; sets maximum feedrates, mm / sec
M204 P4000 R1250 T4000 ; sets acceleration (P, T) and retract acceleration (R), mm/sec^2
M205 X8.00 Y8.00 Z2.00 E10.00 ; sets the jerk limits, mm/sec
M205 S0 T0 ; sets the minimum extruding and travel feed rate, mm/sec

M486 S0
M486 Alizard(3).stl
M486 S-1

;TYPE:Custom
M862.3 P "MINI" ; printer model check
M862.1 P0.4 A0 F0 ; nozzle check
M862.5 P2 ; g-code level check
M862.6 P"Input shaper" ; FW feature check
M115 U6.4.0+11974
G90 ; use absolute coordinates
M83 ; extruder relative mode
M104 S170 ; set extruder temp for bed leveling
M140 S60 ; set bed temp
M109 R170 ; wait for bed leveling temp
M190 S60 ; wait for bed temp
M569 S1 X Y ; set stealthchop for X Y
M204 T1250 ; set travel acceleration
G28 ; home all without mesh bed level
G29 ; mesh bed leveling 
M104 S215 ; set extruder temp
G92 E0

G1 X0 Y-2 Z3 F2400

M109 S215 ; wait for extruder temp

; intro line
G1 X10 Z0.2 F1000
G1 X70 E8 F900
G1 X140 E10 F700
G92 E0

M569 S0 X Y ; set spreadcycle for X Y
M204 T4000 ; restore travel acceleration
M572 W0.06 ; set smooth time
M221 S95 ; set flow
G21 ; set units to millimeters
G90 ; use absolute coordinates
M83 ; use relative distances for extrusion



M572 S0.27


M107
;LAYER_CHANGE
;Z:0.2
;HEIGHT:0.2
G1 E-2.5 F4200
G1 Z.4 F720
M73 P1 R18
M486 S0
G1 X114.659 Y135.571 F24000
G1 Z.2 F720
M73 Q1 S18
G1 E2.5 F2400
M204 P500
;TYPE:Support material interface
;WIDTH:0.4
G1 F1800
G1 X114.424 Y135.187 E.01337
M204 P2000
M204 T4000
G1 X114.659 Y135.571 F24000
M204 P500
G1 F1800
G1 X114.946 Y136.015 E.0157
G2 X115.665 Y136.754 I1.299 J-.543 E.03134
G3 X115.789 Y136.297 I.488 J-.112 E.01464
G1 X114.259 Y134.767 E.06424
G1 X114.191 Y134.315 E.01357
M204 P2000
G1 X113.971 Y133.691 F24000
M204 P500
G1 F1800
G1 X116.297 Y136.017 E.09767
G3 X117.142 Y136.393 I-.219 J1.627 E.02784
G3 X116.305 Y135.237 I1.225 J-1.768 E.04319
G1 X113.902 Y132.834 E.1009
G1 X113.747 Y131.892 E.02835
G1 X115.466 Y133.611 E.07218
G2 X115.21 Y132.567 I-5.712 J.847 E.03196
G1 X113.606 Y130.962 E.06737
G1 X113.388 Y130.076 E.02709
M204 P2000
G1 X114.652 Y129.27 F24000
M204 P500
G1 F1800
G1 X114.528 Y128.733 E.01636
G1 X112.88 Y127.085 E.0692
G1 X112.98 Y126.398 E.02061
G1 X114.477 Y127.895 E.06286
G1 X114.352 Y126.982 E.02736
G1 X113.022 Y125.652 E.05585
G1 X113.178 Y125.02 E.01933
G1 X114.404 Y126.246 E.05148
G1 X114.48 Y125.534 E.02126
G1 X113.277 Y124.331 E.05051
G1 X113.384 Y123.65 E.02047
G1 X114.589 Y124.855 E.0506
G1 X114.707 Y124.185 E.0202
G1 X113.453 Y122.931 E.05266
G1 X113.452 Y122.142 E.02343
G1 X114.828 Y123.519 E.0578
G2 X114.874 Y122.777 I-2.096 J-.502 E.02218
G1 X113.452 Y121.355 E.05971
G1 X113.453 Y120.568 E.02337
G1 X114.844 Y121.959 E.05841
G1 X114.792 Y121.119 E.02499
G1 X113.791 Y120.118 E.04203
G3 X114.894 Y120.5 I.35 J.773 E.03822
G1 X114.805 Y120.941 E.01336
M204 P2000
G1 X115.286 Y122.064 F24000
M204 P500
;TYPE:Support material
;WIDTH:0.5
G1 F1800
G2 X116.393 Y122.634 I1.073 J-.723 E.04937
G1 X117.085 Y122.674 E.02634
G1 X115.286 Y123.348 E.07301
G2 X115.279 Y122.107 I-5.805 J-.586 E.04726
M204 P2000
G1 E-2.5 F4200
G1 Z.4 F720
G1 X112.91 Y127.259 F24000
G1 Z.2 F720
G1 E2.5 F2400
M204 P500
;TYPE:Support material interface
;WIDTH:0.4
G1 F1800
G1 X113.042 Y128.035 E.02337
G1 X114.818 Y129.811 E.07457
G1 X114.911 Y130.692 E.0263
G1 X113.135 Y128.916 E.07457
G2 X113.336 Y129.905 I1.859 J.137 E.03034
G1 X115.109 Y131.678 E.07445
G1 X115.173 Y132.393 E.02131
M204 P2000
G1 E-2.5 F4200
G1 Z.4 F720
G1 X117.609 Y91.991 F24000
G1 Z.2 F720
G1 E2.5 F2400
M204 P500
;TYPE:Support material
;WIDTH:0.5
G1 F1800
G1 X119.296 Y92.069 E.06419
G1 X120.019 Y92.763 E.03809
G3 X121.063 Y93.972 I-2.264 J3.011 E.06117
G3 X121.476 Y94.714 I-.99 J1.037 E.03277
G3 X122.204 Y95.956 I-5.49 J4.051 E.05482
G3 X122.62 Y96.751 I-1.918 J1.511 E.0343
G1 X123.075 Y97.17 E.02351
G3 X123.751 Y99.356 I-6.527 J3.214 E.08733
G3 X124.507 Y100.967 I-11.859 J6.556 E.06768
G2 X123.462 Y103.868 I9.687 J5.128 E.11758
G2 X121.934 Y102.098 I-5.033 J2.803 E.08949
G2 X121.166 Y102.027 I-.599 J2.262 E.02945
G2 X121.017 Y103.427 I.671 J.779 E.05894
G1 X121.799 Y104.85 E.06171
G1 X119.141 Y103.797 E.10866
G1 X119.615 Y104.945 E.0472
G1 X119.615 Y106.517 E.05975
G2 X119.552 Y107.329 I.738 J.466 E.0322
G2 X119.516 Y109.457 I5.173 J1.152 E.08144
G1 X119.534 Y110.165 E.02692
G3 X119.416 Y111.936 I-13.609 J-.016 E.06751
G1 X119.505 Y112.49 E.02133
G1 X119.235 Y113.328 E.03346
G1 X119.217 Y114.853 E.05796
G1 X118.604 Y115.466 E.03295
G1 X118.492 Y115.779 E.01263
G3 X118.219 Y116.49 I-1.705 J-.247 E.02919
G3 X118.119 Y117.156 I-1.28 J.149 E.0259
M73 P1 R17
G3 X117.897 Y118.394 I-4.119 J-.102 E.04799
G3 X117.593 Y118.121 I.444 J-.799 E.01566
G1 X116.981 Y118.098 E.02328
G2 X116.705 Y119.946 I.961 J1.088 E.07714
G1 X117.139 Y120.91 E.04018
G2 X115.481 Y121.146 I-.508 J2.381 E.06498
G1 X115.22 Y121.357 E.01276
G3 X115.341 Y120.472 I2.553 J-.103 E.03412
G2 X113.144 Y120.027 I-1.235 J.45 E.10204
G2 X113.024 Y120.522 I.195 J.309 E.02142
G1 X113.023 Y122.52 E.07594
G3 X112.91 Y123.707 I-3.506 J.266 E.04554
G1 X112.825 Y124.412 E.02699
G1 X111.227 Y125.892 E.08278
G1 X110.564 Y120.985 E.18819
G2 X111.941 Y120.661 I.291 J-1.857 E.05512
G1 X111.979 Y120.615 E.00227
G2 X112.158 Y119.774 I-.51 J-.548 E.03481
G2 X110.748 Y119.182 I-1.351 J1.245 E.05994
G2 X111.305 Y117.152 I-5.958 J-2.724 E.08035
G2 X111.049 Y116.619 I-.667 J-.007 E.02328
G1 X110.697 Y116.284 E.01847
G1 X110.163 Y116.343 E.02042
G1 X110.135 Y116 E.01308
G3 X110.026 Y114.856 I3.037 J-.866 E.04392
G3 X109.926 Y114.1 I1.429 J-.574 E.02929
G3 X109.754 Y113.115 I1.744 J-.811 E.03844
G1 X109.733 Y113.002 E.00437
G2 X109.486 Y111.773 I-2.517 J-.134 E.04815
G2 X109.482 Y110.126 I-2.725 J-.817 E.06351
G2 X109.726 Y109.257 I-.989 J-.747 E.03511
G2 X109.885 Y108.354 I-1.355 J-.703 E.03539
G1 X110.025 Y107.192 E.04448
G3 X110.208 Y106.442 I1.427 J-.048 E.02971
G1 X110.291 Y106.185 E.01026
G3 X110.672 Y105.021 I2.629 J.216 E.04698
G3 X110.904 Y104.596 I.511 J.003 E.01917
G2 X111.212 Y103.95 I-1.251 J-.993 E.02743
G2 X110.683 Y103.301 I-.766 J.084 E.03364
G2 X109.875 Y103.138 I-.803 J1.898 E.03154
G1 X109.489 Y102.832 E.01872
G1 X110.422 Y101.262 E.06941
G2 X110.973 Y100.246 I-3.576 J-2.597 E.04405
G1 X111.043 Y100.167 E.00401
G1 X111.02 Y99.674 E.01876
G1 X110.503 Y99.203 E.02658
G1 X110.009 Y99.224 E.01879
G1 X109.895 Y99.345 E.00632
G2 X109.149 Y100.018 I1.381 J2.277 E.03842
G1 X108.745 Y99.683 E.01995
G2 X111.13 Y96.63 I-16.131 J-15.051 E.14743
G1 X111.899 Y96.096 E.03558
G3 X112.453 Y95.484 I2.363 J1.582 E.03149
G1 X112.607 Y95.314 E.00872
G2 X113.013 Y94.603 I-.679 J-.86 E.03189
G3 X113.986 Y93.428 I4 J2.32 E.05825
G3 X114.491 Y92.959 I1.187 J.772 E.02646
G1 X114.751 Y92.7 E.01395
G1 X115.739 Y92.221 E.04173
G1 X117.288 Y91.945 E.0598
G1 X117.541 Y91.981 E.00971
M204 P2000
G1 X123.969 Y101.558 F24000
M204 P500
G1 F1800
G2 X123.89 Y100.539 I-2.296 J-.334 E.03917
G1 X123.461 Y99.695 E.03598
G1 X123.461 Y102.378 E.10197
G1 X123.302 Y102.901 E.02078
G1 X122.953 Y102.47 E.02108
G1 X122.953 Y97.979 E.17069
G1 X122.73 Y97.415 E.02305
G1 X122.445 Y97.166 E.01438
G1 X122.445 Y101.966 E.18243
G2 X121.938 Y101.668 I-.829 J.833 E.02259
G1 X121.938 Y96.289 E.20444
G1 X121.43 Y95.364 E.04011
G1 X121.43 Y101.625 E.23796
G1 X120.972 Y101.608 E.01742
G1 X120.922 Y101.671 E.00306
G1 X120.922 Y94.436 E.27498
G3 X120.414 Y93.718 I3.538 J-3.039 E.03348
G1 X120.414 Y103.848 E.385
G1 X119.906 Y103.652 E.02069
M73 Q2 S18
G1 X119.906 Y93.198 E.39732
M73 P2 R17
G1 X119.398 Y92.737 E.02607
G1 X119.398 Y103.456 E.40739
G1 X118.89 Y103.259 E.02071
G1 X118.89 Y92.456 E.41058
G1 X118.382 Y92.423 E.01935
G1 X118.382 Y115.106 E.8621
G2 X118.03 Y115.971 I1.281 J1.027 E.03599
G1 X117.875 Y116.261 E.0125
G1 X117.875 Y92.391 E.90721
G1 X117.367 Y92.372 E.01932
G1 X117.367 Y117.701 E.96266
G1 X116.859 Y117.682 E.01932
G1 X116.859 Y92.44 E.95936
G1 X116.351 Y92.53 E.01961
G1 X116.351 Y118.226 E.97661
G2 X116.137 Y119.552 I1.233 J.879 E.05289
G3 X116.351 Y120.465 I-2.339 J1.03 E.03584
G1 X115.843 Y120.534 E.01948
G1 X115.843 Y92.627 E1.06064
G1 X115.335 Y92.873 E.02145
G1 X115.335 Y119.703 E1.01971
G1 X114.827 Y119.354 E.02342
G1 X114.827 Y93.204 E.99387
G2 X114.32 Y93.669 I1.229 J1.853 E.02625
G1 X114.32 Y119.215 E.97091
G2 X113.812 Y119.215 I-.254 J1.098 E.01947
G1 X113.812 Y94.19 E.95111
G2 X113.304 Y95.067 I1.524 J1.468 E.0389
G1 X113.304 Y119.417 E.92545
G1 X112.796 Y119.789 E.02393
M73 P3 R17
M73 Q3 S18
G1 X112.796 Y95.717 E.91489
G1 X112.288 Y96.243 E.02779
G1 X112.288 Y119.35 E.87821
G2 X111.78 Y118.984 I-1.103 J.996 E.02398
G1 X111.78 Y96.679 E.84773
G2 X111.272 Y97.137 I.573 J1.146 E.02631
G1 X111.272 Y103.179 E.22963
G1 X110.764 Y102.891 E.02219
G1 X110.764 Y101.49 E.05325
G1 X110.521 Y101.878 E.0174
G2 X110.257 Y102.97 I1.032 J.829 E.0441
M204 P2000
G1 E-2.5 F4200
G1 Z.4 F720
G1 X118.89 Y114.889 F24000
G1 Z.2 F720
G1 E2.5 F2400
M204 P500
G1 F1800
M73 Q3 S17
G1 X118.89 Y103.74 E.42373
M204 P2000
G1 E-2.5 F4200
G1 Z.4 F720
G1 X112.288 Y124.629 F24000
G1 Z.2 F720
G1 E2.5 F2400
M204 P500
G1 F1800
G1 X112.288 Y120.887 E.14222
G3 X111.78 Y121.256 I-.962 J-.788 E.02412
G1 X111.78 Y124.819 E.13542
G1 X111.528 Y125.052 E.01304
G3 X111.272 Y121.161 I17.41 J-3.099 E.1485
M204 P2000
G1 E-2.5 F4200
G1 Z.4 F720
G1 X111.272 Y116.554 F24000
G1 Z.2 F720
G1 E2.5 F2400
M204 P500
G1 F1800
G1 X111.272 Y104.795 E.44692
G2 X111.007 Y105.265 I.67 J.688 E.02079
G1 X110.764 Y105.797 E.02223
G1 X110.764 Y115.862 E.38253
G1 X110.534 Y115.888 E.0088
G3 X110.446 Y114.818 I2.518 J-.746 E.04109
G3 X110.337 Y114.037 I1.465 J-.602 E.03029
G1 X110.257 Y113.783 E.01012
G1 X110.257 Y106.891 E.26194
M204 P2000
G1 E-2.5 F4200
G1 Z.4 F720
G1 X110.764 Y99.161 F24000
G1 Z.2 F720
G1 E2.5 F2400
M204 P500
G1 F1800
G1 X110.764 Y97.846 E.04998
G1 X110.507 Y98.206 E.01681
G2 X110.257 Y99.008 I.64 J.64 E.0332
M204 P2000
G1 E-2.5 F4200
G1 Z.4 F720
G1 X117.486 Y119.437 F24000
G1 Z.2 F720
G1 E2.5 F2400
M204 P500
;TYPE:External perimeter
;WIDTH:0.601272
G1 F1800
G1 X117.748 Y120.031 E.03014
;WIDTH:0.646268
G1 X118.038 Y120.647 E.03416
;WIDTH:0.649982
G1 X118.051 Y120.674 E.00151
M204 P2000
G1 X117.883 Y120.311 F24000
G1 E-2.5 F4200
G1 Z.4 F720
G1 X119.412 Y119.61 F24000
G1 Z.2 F720
G1 E2.5 F2400
M204 P500
;WIDTH:0.566824
G1 F1800
G1 X119.229 Y119.995 E.01857
;WIDTH:0.606736
G1 X119.046 Y120.381 E.02003
;WIDTH:0.636274
G1 X118.936 Y120.64 E.01388
M204 P2000
G1 X119.102 Y120.276 F24000
G1 E-2.5 F4200
G1 Z.4 F720
G1 X119.428 Y121.81 F24000
G1 Z.2 F720
G1 E2.5 F2400
M204 P500
;WIDTH:0.603206
G1 F1800
G1 X120.424 Y121.864 E.04647
M204 P2000
G1 E-2.5 F4200
G1 Z.4 F720
G1 X118.629 Y123.451 F24000
G1 Z.2 F720
G1 E2.5 F2400
M204 P500
;WIDTH:0.528668
G1 F1800
G1 X118.607 Y122.902 E.02219
M204 P2000
G1 E-2.5 F4200
G1 Z.4 F720
G1 X116.476 Y121.749 F24000
G1 Z.2 F720
G1 E2.5 F2400
M204 P500
;WIDTH:0.545004
G1 F1800
G1 X117.257 Y121.798 E.03267
;WIDTH:0.57818
G1 X117.733 Y121.794 E.02119
M204 P2000
G1 X117.333 Y121.785 F24000
G1 X118.638 Y121.978
M204 P500
;TYPE:Perimeter
;WIDTH:0.36438
G1 F1800
G1 X118.537 Y121.901 E.00339
;WIDTH:0.368694
G1 X118.365 Y121.679 E.00761
G1 X118.361 Y121.625 E.00147
G1 X118.455 Y121.313 E.00883
G1 X118.575 Y121.297 E.00328
G2 X118.849 Y121.793 I1.299 J-.395 E.01546
;WIDTH:0.36438
G1 X118.683 Y121.939 E.00591
M204 P2000
M204 T250
G1 X118.608 Y122.669 F24000
M204 T4000
M204 P500
;TYPE:External perimeter
;WIDTH:0.499999
G1 F1800
G1 X118.59 Y122.58 E.00345
G1 X118.398 Y122.286 E.01335
;WIDTH:0.522457
G1 X117.963 Y121.841 E.02481
;WIDTH:0.550319
G1 X117.848 Y121.818 E.00495
;WIDTH:0.57818
G1 X117.733 Y121.794 E.00523
G1 X117.855 Y121.723 E.00628
;WIDTH:0.547247
G1 X118.027 Y121.422 E.01454
;WIDTH:0.499999
G1 X118.084 Y121.123 E.01157
;WIDTH:0.549994
G1 X118.073 Y120.973 E.00634
;WIDTH:0.599988
G1 X118.062 Y120.823 E.00697
;WIDTH:0.649982
G1 X118.051 Y120.674 E.00754
G1 X118.074 Y120.695 E.00157
;WIDTH:0.638083
G1 X118.181 Y120.77 E.00647
;WIDTH:0.592055
G1 X118.288 Y120.845 E.00597
;WIDTH:0.546027
G1 X118.395 Y120.92 E.00547
;WIDTH:0.499999
G1 X118.582 Y120.893 E.00718
;WIDTH:0.545424
G1 X118.7 Y120.809 E.00605
;WIDTH:0.590849
G1 X118.818 Y120.724 E.00663
;WIDTH:0.636274
G1 X118.936 Y120.64 E.00715
G1 X118.931 Y120.79 E.0074
;WIDTH:0.590849
G1 X118.926 Y120.94 E.00684
;WIDTH:0.545424
G1 X118.922 Y121.09 E.00627
;WIDTH:0.499999
G1 X119.04 Y121.407 E.01286
;WIDTH:0.531965
G1 X119.27 Y121.697 E.01505
;WIDTH:0.567586
G1 X119.349 Y121.753 E.00422
;WIDTH:0.603206
G1 X119.428 Y121.81 E.00454
G1 X119.303 Y121.917 E.00767
;WIDTH:0.568804
G1 X119.177 Y122.025 E.00726
;WIDTH:0.534402
G1 X119.052 Y122.133 E.00675
;WIDTH:0.499999
G1 X118.658 Y122.534 E.02137
G1 X118.629 Y122.613 E.0032
M204 P2000
G1 X118.397 Y122.287 F24000
G1 E-2.5 F4200
G1 Z.4 F720
G1 X110.361 Y117.606 F24000
G1 Z.2 F720
G1 E2.5 F2400
M204 P500
;WIDTH:0.554828
G1 F1800
G1 X110.151 Y118.209 E.02718
;WIDTH:0.57751
G1 X109.957 Y118.723 E.02442
;WIDTH:0.58108
G1 X109.946 Y118.751 E.00135
M204 P2000
G1 X110.084 Y118.376 F24000
G1 E-2.5 F4200
G1 Z.4 F720
G1 X110.448 Y120.071 F24000
G1 Z.2 F720
G1 E2.5 F2400
M204 P500
;WIDTH:0.606512
G1 F1800
G1 X110.861 Y120.091 E.01938
M204 P2000
G1 E-2.5 F4200
G1 Z.4 F720
G1 X109.469 Y121.481 F24000
G1 Z.2 F720
G1 E2.5 F2400
M204 P500
;WIDTH:0.548354
G1 F1800
G1 X109.497 Y120.9 E.02445
;WIDTH:0.508276
G1 X109.498 Y120.886 E.00054
M204 P2000
G1 E-2.5 F4200
G1 Z.4 F720
G1 X107.705 Y119.898 F24000
G1 Z.2 F720
G1 E2.5 F2400
M204 P500
;WIDTH:0.572278
G1 F1800
G1 X108.496 Y119.926 E.03484
;WIDTH:0.601404
G1 X108.701 Y119.917 E.00953
M204 P2000
G1 E-2.5 F4200
G1 Z.4 F720
G1 X108.704 Y118.004 F24000
G1 Z.2 F720
G1 E2.5 F2400
M204 P500
;WIDTH:0.600664
G1 F1800
M73 P4 R17
M73 Q4 S17
G1 X109.074 Y118.773 E.03958
;WIDTH:0.612154
G1 X109.1 Y118.837 E.00327
M204 P2000
G1 X109.726 Y120.018 F24000
M204 P500
;TYPE:Perimeter
;WIDTH:0.362903
G1 F1800
G1 X109.535 Y120.192 E.00687
G1 X109.29 Y119.907 E.01
G1 X109.501 Y119.487 E.01251
G1 X109.703 Y119.963 E.01376
M204 P2000
M204 T250
G1 X109.946 Y118.751 F24000
M204 T4000
M204 P500
;TYPE:External perimeter
;WIDTH:0.58108
G1 F1800
G1 X109.931 Y118.818 E.00307
;WIDTH:0.567182
G1 X109.905 Y119.057 E.01048
;WIDTH:0.533591
G1 X109.879 Y119.297 E.00985
;WIDTH:0.499999
G1 X110.009 Y119.74 E.01755
G1 X110.105 Y119.896 E.00696
;WIDTH:0.535504
G1 X110.219 Y119.954 E.00524
;WIDTH:0.571008
G1 X110.334 Y120.013 E.00568
;WIDTH:0.606512
G1 X110.448 Y120.071 E.00599
G1 X110.272 Y120.096 E.00833
;WIDTH:0.559206
G1 X110.197 Y120.14 E.00373
;WIDTH:0.529603
G1 X110.121 Y120.185 E.00357
;WIDTH:0.504093
G1 X109.553 Y120.741 E.03048
;WIDTH:0.50767
G1 X109.498 Y120.886 E.00599
G1 X109.468 Y120.77 E.00463
;WIDTH:0.505112
G1 X109.308 Y120.51 E.01173
;WIDTH:0.531342
G1 X108.883 Y120.034 E.02592
;WIDTH:0.566373
G1 X108.792 Y119.976 E.0047
;WIDTH:0.601404
G1 X108.701 Y119.917 E.00504
G1 X108.731 Y119.909 E.00144
;WIDTH:0.593589
G1 X108.856 Y119.791 E.00787
;WIDTH:0.546794
G1 X108.981 Y119.673 E.0072
;WIDTH:0.499999
G1 X109.112 Y119.377 E.0123
;WIDTH:0.536816
G1 X109.109 Y119.199 E.00731
;WIDTH:0.573632
G1 X109.105 Y119.021 E.00786
;WIDTH:0.610448
G1 X109.101 Y118.843 E.0084
G1 X109.193 Y118.92 E.00566
;WIDTH:0.573632
G1 X109.285 Y118.996 E.00527
;WIDTH:0.536816
G1 X109.376 Y119.073 E.0049
;WIDTH:0.499999
G1 X109.568 Y119.082 E.00731
;WIDTH:0.54054
G1 X109.757 Y118.916 E.01041
;WIDTH:0.58108
G1 X109.9 Y118.791 E.0085
M204 P2000
G1 X109.894 Y119.191 F24000
G1 E-2.5 F4200
G1 Z.4 F720
G1 X108.853 Y104.003 F24000
G1 Z.2 F720
G1 E2.5 F2400
M204 P500
;WIDTH:0.675648
G1 F1800
G1 X109.123 Y104.008 E.01421
