; generated by PrusaSlicer 2.7.1+linux-x64-GTK3 on 2024-01-11 at 20:49:04 UTC


;
;
; 

; external perimeters extrusion width = 0.80mm
; perimeters extrusion width = 0.80mm
; infill extrusion width = 0.80mm
; solid infill extrusion width = 0.80mm
; top infill extrusion width = 0.80mm
; first layer extrusion width = 0.80mm

M73 P0 R6
M73 Q0 S6
M201 X1000 Y1000 Z200 E5000 ; sets maximum accelerations, mm/sec^2
M203 X200 Y200 Z12 E120 ; sets maximum feedrates, mm / sec
M204 S1250 T1250 ; sets acceleration (S) and retract acceleration (R), mm/sec^2
M205 X8.00 Y8.00 Z0.40 E4.50 ; sets the jerk limits, mm/sec
M205 S0 T0 ; sets the minimum extruding and travel feed rate, mm/sec
;TYPE:Custom
M862.3 P "MK3S" ; printer model check
M862.1 P0.6 ; nozzle diameter check
M115 U3.13.2 ; tell printer latest fw version
G90 ; use absolute coordinates
M83 ; extruder relative mode
M104 S240 ; set extruder temp
M140 S85 ; set bed temp
M190 S85 ; wait for bed temp
M109 S240 ; wait for extruder temp
G28 W ; home all without mesh bed level
G80 X73.8644 Y40.6644 W102.271 H128.671 ; mesh bed levelling

G1 Z0.2 F720
G1 Y-3 F1000 ; go outside print area
G92 E0
G1 X60 E9 F1000 ; intro line
G1 X100 E12.5 F1000 ; intro line
M73 P1 R6
M73 Q1 S6

G92 E0
M221 S95
G21 ; set units to millimeters
G90 ; use absolute coordinates
M83 ; use relative distances for extrusion
M900 K0.04 ; Filament gcode LA 1.5
M900 K24 ; Filament gcode LA 1.0

M107
;LAYER_CHANGE
;Z:0.2
;HEIGHT:0.2
;BEFORE_LAYER_CHANGE
G92 E0.0
;0.2


G1 E-1 F2100
G1 Z.2 F10800
;AFTER_LAYER_CHANGE
;0.2
G1 X77.743 Y50.265
G1 Z.2
G1 E1 F1500
M204 S800
;TYPE:Skirt/Brim
;WIDTH:0.8
G1 F1200
G1 X80.325 Y47.12 E.25616
G1 X83.472 Y44.538 E.25625
G1 X87.062 Y42.621 E.2562
G1 X90.957 Y41.44 E.25622
M73 P2 R6
M73 Q2 S6
G1 X95 Y41.043 E.25574
G1 X155 Y41.043 E3.77709
G1 X159.05 Y41.442 E.25619
G1 X162.945 Y42.624 E.25624
M73 Q3 S6
G1 X166.535 Y44.543 E.25626
M73 P3 R5
G1 X169.68 Y47.125 E.25616
G1 X172.262 Y50.272 E.25625
G1 X174.179 Y53.862 E.2562
M73 Q3 S5
G1 X175.36 Y57.757 E.25622
G1 X175.757 Y61.8 E.25574
G1 X175.757 Y148.2 E5.439
G1 X175.358 Y152.25 E.25619
M73 P4 R5
M73 Q4 S5
G1 X174.176 Y156.145 E.25624
G1 X172.257 Y159.735 E.25626
G1 X169.675 Y162.88 E.25616
G1 X166.528 Y165.462 E.25625
G1 X162.938 Y167.379 E.2562
G1 X159.043 Y168.56 E.25622
G1 X155 Y168.957 E.25574
G1 X95 Y168.957 E3.77709
M73 Q5 S5
G1 X90.95 Y168.558 E.25619
M73 P5 R5
G1 X87.055 Y167.376 E.25624
G1 X83.465 Y165.457 E.25626
G1 X80.32 Y162.875 E.25616
G1 X77.738 Y159.728 E.25625
M73 Q6 S5
G1 X75.821 Y156.138 E.2562
M73 P6 R5
G1 X74.64 Y152.243 E.25622
G1 X74.243 Y148.2 E.25574
G1 X74.243 Y61.8 E5.439
G1 X74.642 Y57.75 E.25619
M73 P7 R5
M73 Q7 S5
G1 X75.824 Y53.855 E.25624
G1 X77.7 Y50.345 E.25054
M204 S1250
;WIPE_START
G1 F8640
G1 X77.743 Y50.266 E-.02077
G1 X80.325 Y47.12 E-.93975
G1 X80.457 Y47.012 E-.03948
;WIPE_END
G1 Z.4 F10800
G1 X105.64 Y129.961
G1 Z.2
G1 E1 F1500
M204 S800
;TYPE:External perimeter
;WIDTH:0.799999
G1 F1200
G1 X105.64 Y128.539 E.08952
G1 X105.622 Y128.425 E.00727
G1 X105.488 Y128.235 E.01464
G1 X105.261 Y128.16 E.01505
G1 X95.64 Y128.16 E.60566
G1 X95.64 Y120.64 E.47339
M73 Q8 S5
G1 X105.261 Y120.64 E.60566
M73 P8 R5
G1 X105.394 Y120.616 E.00851
G1 X105.576 Y120.472 E.01461
G1 X105.64 Y120.261 E.01388
G1 X105.64 Y118.839 E.08952
G1 X105.622 Y118.724 E.00733
G1 X105.487 Y118.535 E.01462
G1 X105.261 Y118.46 E.01499
G1 X95.64 Y118.46 E.60566
G1 X95.64 Y110.94 E.47339
G1 X105.261 Y110.94 E.60566
G1 X105.393 Y110.916 E.00845
G1 X105.575 Y110.773 E.01457
G1 X105.64 Y110.561 E.01396
G1 X105.64 Y109.139 E.08952
G1 X105.622 Y109.024 E.00733
G1 X105.487 Y108.835 E.01462
G1 X105.261 Y108.76 E.01499
G1 X95.64 Y108.76 E.60566
G1 X95.64 Y101.24 E.47339
G1 X105.261 Y101.24 E.60566
G1 X105.393 Y101.216 E.00845
M73 Q9 S5
G1 X105.575 Y101.073 E.01457
G1 X105.64 Y100.861 E.01396
G1 X105.64 Y99.439 E.08952
G1 X105.622 Y99.324 E.00733
M73 P9 R5
G1 X105.487 Y99.135 E.01462
G1 X105.261 Y99.06 E.01499
G1 X95.64 Y99.06 E.60566
G1 X95.64 Y91.54 E.47339
G1 X105.261 Y91.54 E.60566
G1 X105.393 Y91.516 E.00845
G1 X105.575 Y91.373 E.01457
G1 X105.64 Y91.161 E.01396
G1 X105.64 Y89.739 E.08952
G1 X105.622 Y89.625 E.00727
G1 X105.488 Y89.435 E.01464
G1 X105.261 Y89.36 E.01505
G1 X95.64 Y89.36 E.60566
G1 X95.64 Y81.84 E.47339
G1 X105.261 Y81.84 E.60566
G1 X105.394 Y81.816 E.00851
G1 X105.576 Y81.672 E.01461
G1 X105.64 Y81.461 E.01388
G1 X105.64 Y80.039 E.08952
G1 X105.621 Y79.919 E.00765
G1 X105.48 Y79.73 E.01484
G1 X105.261 Y79.66 E.01447
G1 X95.64 Y79.66 E.60566
G1 X95.64 Y72.14 E.47339
M73 Q10 S5
G1 X105.261 Y72.14 E.60566
M73 P10 R5
G1 X105.388 Y72.118 E.00811
G1 X105.571 Y71.98 E.01443
G1 X105.64 Y71.761 E.01445
G1 X105.64 Y70.339 E.08952
G1 X105.617 Y70.209 E.00831
G1 X105.47 Y70.023 E.01492
G1 X105.261 Y69.96 E.01374
G1 X95.64 Y69.96 E.60566
G1 X95.64 Y62.44 E.47339
G1 X154.36 Y62.44 E3.6965
G1 X154.36 Y86.882 E1.53866
M73 P11 R5
M73 Q11 S5
G1 X154.36 Y147.56 E3.81976
G1 X95.64 Y147.56 E3.6965
M73 P12 R5
M73 Q12 S5
G1 X95.64 Y140.04 E.47339
M73 P13 R5
M73 Q13 S5
G1 X105.261 Y140.04 E.60566
G1 X105.407 Y140.011 E.00937
G1 X105.564 Y139.889 E.01252
G1 X105.64 Y139.661 E.01513
G1 X105.64 Y138.239 E.08952
G1 X105.621 Y138.119 E.00765
G1 X105.48 Y137.93 E.01484
G1 X105.261 Y137.86 E.01447
G1 X95.64 Y137.86 E.60566
G1 X95.64 Y130.34 E.47339
G1 X105.261 Y130.34 E.60566
G1 X105.388 Y130.318 E.00811
G1 X105.571 Y130.18 E.01443
G1 X105.613 Y130.047 E.00878
M204 S1250
;WIPE_START
G1 F8640
G1 X105.64 Y129.961 E-.02081
G1 X105.64 Y128.539 E-.32834
G1 X105.622 Y128.425 E-.02665
G1 X105.488 Y128.235 E-.05368
G1 X105.261 Y128.16 E-.0552
G1 X103.029 Y128.16 E-.51532
;WIPE_END
G1 Z.4 F10800
G1 X95.906 Y63.05
G1 Z.2
M73 P14 R5
M73 Q14 S5
G1 E1 F1500
M204 S800
;TYPE:Solid infill
;WIDTH:0.805648
G1 F1200
G1 X153.753 Y63.05 E3.66872
G1 X153.753 Y63.813 E.04839
M73 Q15 S5
G1 X96.247 Y63.813 E3.64709
G1 X96.247 Y64.575 E.04833
M73 P15 R5
G1 X153.753 Y64.575 E3.64709
G1 X153.753 Y65.338 E.04839
M73 P16 R5
M73 Q16 S5
G1 X96.247 Y65.338 E3.64709
G1 X96.247 Y66.101 E.04839
M73 P17 R5
M73 Q17 S5
G1 X153.753 Y66.101 E3.64709
G1 X153.753 Y66.864 E.04839
M73 P18 R5
M73 Q18 S5
G1 X96.247 Y66.864 E3.64709
G1 X96.247 Y67.626 E.04833
G1 X153.753 Y67.626 E3.64709
G1 X153.753 Y68.389 E.04839
M73 P19 R4
M73 Q19 S4
G1 X96.247 Y68.389 E3.64709
G1 X96.247 Y69.152 E.04839
M73 P20 R4
M73 Q20 S4
G1 X153.753 Y69.152 E3.64709
G1 X153.753 Y69.915 E.04839
M73 P21 R4
M73 Q21 S4
G1 X106.148 Y69.915 E3.01916
G1 X106.224 Y70.119 E.01381
G1 X106.247 Y70.326 E.01321
G1 X106.247 Y70.677 E.02226
G1 X153.753 Y70.677 E3.01288
G1 X153.753 Y71.44 E.04839
M73 P22 R4
M73 Q22 S4
G1 X106.247 Y71.44 E3.01288
G1 X106.234 Y71.927 E.0309
M73 P23 R4
M73 Q23 S4
G1 X106.14 Y72.203 E.01849
G1 X153.753 Y72.203 E3.01967
G1 X153.753 Y72.965 E.04833
G1 X96.247 Y72.965 E3.64709
G1 X96.247 Y73.728 E.04839
M73 P24 R4
M73 Q24 S4
G1 X153.753 Y73.728 E3.64709
G1 X153.753 Y74.491 E.04839
M73 P25 R4
M73 Q25 S4
G1 X96.247 Y74.491 E3.64709
G1 X96.247 Y75.254 E.04839
M73 P26 R4
M73 Q26 S4
G1 X153.753 Y75.254 E3.64709
G1 X153.753 Y76.016 E.04833
M73 Q27 S4
G1 X96.247 Y76.016 E3.64709
G1 X96.247 Y76.779 E.04839
M73 P27 R4
G1 X153.753 Y76.779 E3.64709
G1 X153.753 Y77.542 E.04839
M73 P28 R4
M73 Q28 S4
G1 X96.247 Y77.542 E3.64709
G1 X96.247 Y78.305 E.04839
M73 P29 R4
M73 Q29 S4
G1 X153.753 Y78.305 E3.64709
G1 X153.753 Y79.067 E.04833
M73 P30 R4
M73 Q30 S4
G1 X105.44 Y79.067 E3.06406
G1 X105.721 Y79.164 E.01885
G1 X105.919 Y79.301 E.01527
G1 X106.097 Y79.513 E.01756
G1 X106.205 Y79.746 E.01629
G1 X106.218 Y79.83 E.00539
G1 X153.753 Y79.83 E3.01472
G1 X153.753 Y80.593 E.04839
M73 P31 R4
M73 Q31 S4
G1 X106.247 Y80.593 E3.01288
G1 X106.247 Y81.355 E.04833
M73 P32 R4
M73 Q32 S4
G1 X153.753 Y81.355 E3.01288
G1 X153.753 Y82.118 E.04839
G1 X105.99 Y82.118 E3.02918
G1 X105.935 Y82.184 E.00545
M73 P33 R4
M73 Q33 S4
G1 X105.748 Y82.32 E.01466
G1 X105.596 Y82.39 E.01061
G1 X105.282 Y82.447 E.02024
G1 X96.247 Y82.447 E.57301
G1 X96.247 Y82.881 E.02752
G1 X153.753 Y82.881 E3.64709
G1 X153.753 Y83.644 E.04839
M73 P34 R4
M73 Q34 S4
G1 X96.247 Y83.644 E3.64709
G1 X96.247 Y84.406 E.04833
M73 P35 R4
M73 Q35 S4
G1 X153.753 Y84.406 E3.64709
G1 X153.753 Y85.169 E.04839
M73 P35 R3
M73 Q36 S3
G1 X96.247 Y85.169 E3.64709
G1 X96.247 Y85.932 E.04839
M73 P36 R3
G1 X153.753 Y85.932 E3.64709
G1 X153.753 Y86.695 E.04839
M73 P37 R3
M73 Q37 S3
G1 X96.247 Y86.695 E3.64709
G1 X96.247 Y87.457 E.04833
M73 P38 R3
M73 Q38 S3
G1 X153.753 Y87.457 E3.64709
G1 X153.753 Y88.22 E.04839
M73 P39 R3
M73 Q39 S3
G1 X96.247 Y88.22 E3.64709
G1 X96.247 Y88.753 E.0338
M73 Q40 S3
G1 X105.272 Y88.753 E.57238
G1 X105.451 Y88.769 E.0114
M73 P40 R3
G1 X105.74 Y88.874 E.0195
G1 X105.888 Y88.983 E.01166
G1 X153.753 Y88.983 E3.03565
G1 X153.753 Y89.745 E.04833
G1 X106.247 Y89.745 E3.01288
G1 X106.247 Y90.508 E.04839
M73 P41 R3
M73 Q41 S3
G1 X153.753 Y90.508 E3.01288
G1 X153.753 Y91.271 E.04839
M73 Q42 S3
G1 X106.237 Y91.271 E3.01352
M73 P42 R3
G1 X106.226 Y91.369 E.00625
G1 X106.162 Y91.564 E.01302
G1 X106.078 Y91.716 E.01101
G1 X105.932 Y91.886 E.01421
G1 X105.719 Y92.034 E.01645
G1 X153.753 Y92.034 E3.04637
G1 X153.753 Y92.796 E.04833
M73 P43 R3
M73 Q43 S3
G1 X96.247 Y92.796 E3.64709
G1 X96.247 Y93.559 E.04839
M73 P44 R3
M73 Q44 S3
G1 X153.753 Y93.559 E3.64709
G1 X153.753 Y94.322 E.04839
G1 X96.247 Y94.322 E3.64709
M73 Q45 S3
G1 X96.247 Y95.085 E.04839
M73 P45 R3
G1 X153.753 Y95.085 E3.64709
G1 X153.753 Y95.847 E.04833
M73 P46 R3
M73 Q46 S3
G1 X96.247 Y95.847 E3.64709
G1 X96.247 Y96.61 E.04839
M73 P47 R3
M73 Q47 S3
G1 X153.753 Y96.61 E3.64709
G1 X153.753 Y97.373 E.04839
M73 P48 R3
M73 Q48 S3
G1 X96.247 Y97.373 E3.64709
G1 X96.247 Y98.135 E.04833
G1 X153.753 Y98.135 E3.64709
G1 X153.753 Y98.898 E.04839
M73 P49 R3
M73 Q49 S3
G1 X106.082 Y98.898 E3.02335
G1 X106.211 Y99.168 E.01898
M73 P50 R3
M73 Q50 S3
G1 X106.247 Y99.395 E.01458
G1 X106.247 Y99.661 E.01687
G1 X153.753 Y99.661 E3.01288
G1 X153.753 Y100.424 E.04839
M73 Q51 S3
G1 X106.247 Y100.424 E3.01288
G1 X106.247 Y100.874 E.02854
M73 P51 R2
M73 Q51 S2
G1 X106.226 Y101.069 E.01244
G1 X106.188 Y101.186 E.0078
G1 X153.753 Y101.186 E3.01662
G1 X153.753 Y101.949 E.04839
M73 P52 R2
M73 Q52 S2
G1 X96.247 Y101.949 E3.64709
G1 X96.247 Y102.712 E.04839
M73 P53 R2
M73 Q53 S2
G1 X153.753 Y102.712 E3.64709
G1 X153.753 Y103.475 E.04839
G1 X96.247 Y103.475 E3.64709
G1 X96.247 Y104.237 E.04833
M73 P54 R2
M73 Q54 S2
G1 X153.753 Y104.237 E3.64709
G1 X153.753 Y105 E.04839
M73 P55 R2
M73 Q55 S2
G1 X96.247 Y105 E3.64709
G1 X96.247 Y105.763 E.04839
M73 P56 R2
M73 Q56 S2
G1 X153.753 Y105.763 E3.64709
G1 X153.753 Y106.525 E.04833
M73 P57 R2
M73 Q57 S2
G1 X96.247 Y106.525 E3.64709
G1 X96.247 Y107.288 E.04839
G1 X153.753 Y107.288 E3.64709
G1 X153.753 Y108.051 E.04839
M73 P58 R2
M73 Q58 S2
G1 X96.247 Y108.051 E3.64709
G1 X96.247 Y108.153 E.00647
M73 P59 R2
M73 Q59 S2
G1 X105.272 Y108.153 E.57238
G1 X105.45 Y108.169 E.01133
G1 X105.738 Y108.273 E.01942
G1 X105.935 Y108.416 E.01544
G1 X106.108 Y108.63 E.01745
G1 X106.188 Y108.814 E.01272
G1 X153.753 Y108.814 E3.01662
G1 X153.753 Y109.576 E.04833
M73 P60 R2
M73 Q60 S2
G1 X106.247 Y109.576 E3.01288
G1 X106.247 Y110.339 E.04839
G1 X153.753 Y110.339 E3.01288
G1 X153.753 Y111.102 E.04839
M73 P61 R2
M73 Q61 S2
G1 X106.086 Y111.102 E3.02309
G1 X105.932 Y111.286 E.01522
M73 P62 R2
M73 Q62 S2
G1 X105.746 Y111.421 E.01458
G1 X105.594 Y111.491 E.01061
G1 X105.282 Y111.547 E.0201
G1 X96.247 Y111.547 E.57301
G1 X96.247 Y111.865 E.02017
G1 X153.753 Y111.865 E3.64709
G1 X153.753 Y112.627 E.04833
M73 P63 R2
M73 Q63 S2
G1 X96.247 Y112.627 E3.64709
G1 X96.247 Y113.39 E.04839
G1 X153.753 Y113.39 E3.64709
G1 X153.753 Y114.153 E.04839
M73 P64 R2
M73 Q64 S2
G1 X96.247 Y114.153 E3.64709
G1 X96.247 Y114.915 E.04833
M73 P65 R2
M73 Q65 S2
G1 X153.753 Y114.915 E3.64709
G1 X153.753 Y115.678 E.04839
M73 P66 R2
M73 Q66 S2
G1 X96.247 Y115.678 E3.64709
G1 X96.247 Y116.441 E.04839
M73 P67 R2
M73 Q67 S2
G1 X153.753 Y116.441 E3.64709
G1 X153.753 Y117.204 E.04839
M73 P67 R1
M73 Q67 S1
G1 X96.247 Y117.204 E3.64709
G1 X96.247 Y117.853 E.04116
M73 P68 R1
M73 Q68 S1
G1 X105.272 Y117.853 E.57238
G1 X105.45 Y117.869 E.01133
G1 X105.719 Y117.966 E.01814
G1 X153.753 Y117.966 E3.04637
G1 X153.753 Y118.729 E.04839
M73 P69 R1
M73 Q69 S1
G1 X106.236 Y118.729 E3.01358
G1 X106.247 Y119.492 E.0484
M73 P70 R1
M73 Q70 S1
G1 X153.753 Y119.492 E3.01288
G1 X153.753 Y120.255 E.04839
G1 X106.247 Y120.255 E3.01288
G1 X106.226 Y120.468 E.01357
M73 P71 R1
M73 Q71 S1
G1 X106.163 Y120.662 E.01294
G1 X106.079 Y120.813 E.01096
G1 X105.888 Y121.017 E.01772
G1 X153.753 Y121.017 E3.03565
G1 X153.753 Y121.78 E.04839
M73 P72 R1
M73 Q72 S1
G1 X96.247 Y121.78 E3.64709
G1 X96.247 Y122.543 E.04839
G1 X153.753 Y122.543 E3.64709
G1 X153.753 Y123.305 E.04833
M73 P73 R1
M73 Q73 S1
G1 X96.247 Y123.305 E3.64709
G1 X96.247 Y124.068 E.04839
M73 P74 R1
M73 Q74 S1
G1 X153.753 Y124.068 E3.64709
G1 X153.753 Y124.831 E.04839
M73 P75 R1
M73 Q75 S1
G1 X96.247 Y124.831 E3.64709
G1 X96.247 Y125.594 E.04839
M73 Q76 S1
G1 X153.753 Y125.594 E3.64709
G1 X153.753 Y126.356 E.04833
M73 P76 R1
G1 X96.247 Y126.356 E3.64709
G1 X96.247 Y127.119 E.04839
M73 P77 R1
M73 Q77 S1
G1 X153.753 Y127.119 E3.64709
G1 X153.753 Y127.882 E.04839
M73 P78 R1
M73 Q78 S1
G1 X105.988 Y127.882 E3.02931
G1 X106.11 Y128.032 E.01226
M73 P79 R1
M73 Q79 S1
G1 X106.212 Y128.271 E.01648
G1 X106.247 Y128.645 E.02382
G1 X153.753 Y128.645 E3.01288
G1 X153.753 Y129.407 E.04833
G1 X106.247 Y129.407 E3.01288
G1 X106.247 Y129.973 E.0359
M73 P80 R1
M73 Q80 S1
G1 X106.224 Y130.17 E.01258
G1 X153.753 Y130.17 E3.01434
G1 X153.753 Y130.933 E.04839
M73 Q81 S1
G1 X96.247 Y130.947 E3.64709
G1 X96.247 Y131.695 E.04744
M73 P81 R1
G1 X153.753 Y131.695 E3.64709
G1 X153.753 Y132.458 E.04839
M73 P82 R1
M73 Q82 S1
G1 X96.247 Y132.458 E3.64709
G1 X96.247 Y133.221 E.04839
M73 P83 R1
M73 Q83 S1
G1 X153.753 Y133.221 E3.64709
G1 X153.753 Y133.984 E.04839
M73 P84 R0
M73 Q84 S0
G1 X96.247 Y133.984 E3.64709
G1 X96.247 Y134.746 E.04833
G1 X153.753 Y134.746 E3.64709
G1 X153.753 Y135.509 E.04839
M73 P85 R0
M73 Q85 S0
G1 X96.247 Y135.509 E3.64709
G1 X96.247 Y136.272 E.04839
M73 P86 R0
M73 Q86 S0
G1 X153.753 Y136.272 E3.64709
G1 X153.753 Y137.035 E.04839
M73 P87 R0
M73 Q87 S0
G1 X96.247 Y137.035 E3.64709
G1 X96.247 Y137.253 E.01383
M73 P88 R0
M73 Q88 S0
G1 X105.432 Y137.265 E.58252
G1 X105.721 Y137.364 E.01937
G1 X105.919 Y137.501 E.01527
G1 X106.097 Y137.713 E.01756
G1 X106.137 Y137.797 E.0059
G1 X153.753 Y137.797 E3.01986
G1 X153.753 Y138.56 E.04839
G1 X106.247 Y138.56 E3.01288
G1 X106.247 Y139.323 E.04839
M73 P89 R0
M73 Q89 S0
G1 X153.753 Y139.323 E3.01288
G1 X153.753 Y140.085 E.04833
M73 P90 R0
M73 Q90 S0
G1 X106.143 Y140.085 E3.01948
G1 X106.055 Y140.248 E.01175
G1 X105.941 Y140.376 E.01087
G1 X105.804 Y140.485 E.0111
G1 X105.641 Y140.572 E.01172
G1 X105.457 Y140.629 E.01222
G1 X105.273 Y140.647 E.01173
G1 X96.247 Y140.647 E.57244
G1 X96.247 Y140.848 E.01275
M73 Q91 S0
G1 X153.753 Y140.848 E3.64709
M73 P91 R0
G1 X153.753 Y141.611 E.04839
G1 X96.247 Y141.611 E3.64709
G1 X96.247 Y142.374 E.04839
M73 P92 R0
M73 Q92 S0
G1 X153.753 Y142.374 E3.64709
G1 X153.753 Y143.136 E.04833
M73 P93 R0
M73 Q93 S0
G1 X96.247 Y143.136 E3.64709
G1 X96.247 Y143.899 E.04839
M73 P94 R0
M73 Q94 S0
G1 X153.753 Y143.899 E3.64709
G1 X153.753 Y144.662 E.04839
G1 X96.247 Y144.662 E3.64709
G1 X96.247 Y145.425 E.04839
M73 P95 R0
M73 Q95 S0
G1 X153.753 Y145.425 E3.64709
G1 X153.753 Y146.187 E.04833
M73 P96 R0
M73 Q96 S0
G1 X96.247 Y146.187 E3.64709
G1 X96.247 Y146.95 E.04839
M73 P97 R0
M73 Q97 S0
G1 X154.094 Y146.95 E3.66872
M204 S1250
;WIPE_START
G1 F8640;_WIPE
M73 P98 R0
M73 Q98 S0
G1 X149.763 Y146.95 E-1
;WIPE_END
M107
;TYPE:Custom
; Filament-specific end gcode
G1 Z1.2 F720 ; Move print head up
G1 X0 Y200 F3600 ; park
G1 Z49.2 F720 ; Move print head further up
G4 ; wait
M221 S100 ; reset flow
M900 K0 ; reset LA

M104 S0 ; turn off temperature
M140 S0 ; turn off heatbed
M107 ; turn off fan
M84 ; disable motors
; max_layer_z = 0.2
M73 P100 R0
M73 Q100 S0
