; generated by PrusaSlicer 2.7.1+linux-x64-GTK3 on 2024-01-11 at 20:30:19 UTC


;
;
; 

; external perimeters extrusion width = 0.45mm
; perimeters extrusion width = 0.45mm
; infill extrusion width = 0.45mm
; solid infill extrusion width = 0.45mm
; top infill extrusion width = 0.40mm
; first layer extrusion width = 0.42mm

M73 P0 R11
M73 Q0 S11
M201 X1000 Y1000 Z200 E5000 ; sets maximum accelerations, mm/sec^2
M203 X200 Y200 Z12 E120 ; sets maximum feedrates, mm / sec
M204 S1250 T1250 ; sets acceleration (S) and retract acceleration (R), mm/sec^2
M205 X8.00 Y8.00 Z0.40 E4.50 ; sets the jerk limits, mm/sec
M205 S0 T0 ; sets the minimum extruding and travel feed rate, mm/sec

; printing object FirstLayerCalibration-FirstLayer.stl id:0 copy 0
; stop printing object FirstLayerCalibration-FirstLayer.stl id:0 copy 0

;TYPE:Custom
M862.3 P "MK3S" ; printer model check
M862.1 P0.4 ; nozzle diameter check
M115 U3.11.0 ; tell printer latest fw version
G90 ; use absolute coordinates
M83 ; extruder relative mode
M104 S215 ; set extruder temp
M140 S60 ; set bed temp
M190 S60 ; wait for bed temp
M109 S215 ; wait for extruder temp
G28 W ; home all without mesh bed level
G80 ; mesh bed leveling
G1 Z0.2 F720
G1 Y-3 F1000 ; go outside print area
G92 E0
G1 X60 E9 F1000 ; intro line
G1 X100 E12.5 F1000 ; intro line
G92 E0
M221 S95

; Don't change E values below. Excessive value can damage the printer.
M907 E430 ; set extruder motor current
G21 ; set units to millimeters
G90 ; use absolute coordinates
M83 ; use relative distances for extrusion
M900 K0.05 ; Filament gcode LA 1.5
M900 K30 ; Filament gcode LA 1.0
M107
;LAYER_CHANGE
;Z:0.2
;HEIGHT:0.2
;BEFORE_LAYER_CHANGE
G92 E0.0
;0.2


G1 Z.2 F720
;AFTER_LAYER_CHANGE
;0.2
; printing object FirstLayerCalibration-FirstLayer.stl id:0 copy 0
G1 E-.8 F2100
G1 X95.41 Y62.21 F10800
G1 Z.2 F720
M73 Q1 S11
G1 E.8 F2100
M204 S800
;TYPE:External perimeter
;WIDTH:0.419999
G1 F1200
G1 X154.59 Y62.21 E1.85554
G1 X154.59 Y86.885 E.77367
M73 P1 R11
G1 X154.59 Y147.79 E1.90963
G1 X95.41 Y147.79 E1.85554
M73 P2 R11
M73 Q2 S11
G1 X95.41 Y139.81 E.25021
G1 X105.221 Y139.81 E.30762
G1 X105.351 Y139.758 E.00439
G1 X105.41 Y139.621 E.00468
G1 X105.41 Y138.279 E.04208
G1 X105.368 Y138.16 E.00396
G1 X105.221 Y138.09 E.0051
G1 X95.41 Y138.09 E.30762
G1 X95.41 Y130.11 E.25021
G1 X105.221 Y130.11 E.30762
G1 X105.346 Y130.063 E.00419
G1 X105.41 Y129.921 E.00488
G1 X105.41 Y128.579 E.04208
G1 X105.362 Y128.452 E.00426
G1 X105.221 Y128.39 E.00483
G1 X95.41 Y128.39 E.30762
G1 X95.41 Y120.41 E.25021
G1 X105.221 Y120.41 E.30762
M73 Q3 S11
G1 X105.35 Y120.36 E.00434
M73 P3 R11
G1 X105.41 Y120.221 E.00475
G1 X105.41 Y118.879 E.04208
G1 X105.361 Y118.752 E.00427
G1 X105.221 Y118.69 E.0048
G1 X95.41 Y118.69 E.30762
G1 X95.41 Y110.71 E.25021
G1 X105.221 Y110.71 E.30762
G1 X105.349 Y110.66 E.00431
G1 X105.41 Y110.521 E.00476
G1 X105.41 Y109.179 E.04208
G1 X105.361 Y109.052 E.00427
G1 X105.221 Y108.99 E.0048
G1 X95.41 Y108.99 E.30762
G1 X95.41 Y101.01 E.25021
G1 X105.221 Y101.01 E.30762
G1 X105.349 Y100.96 E.00431
G1 X105.41 Y100.821 E.00476
G1 X105.41 Y99.479 E.04208
G1 X105.361 Y99.352 E.00427
G1 X105.221 Y99.29 E.0048
G1 X95.41 Y99.29 E.30762
G1 X95.41 Y91.31 E.25021
G1 X105.221 Y91.31 E.30762
G1 X105.349 Y91.26 E.00431
G1 X105.41 Y91.121 E.00476
G1 X105.41 Y89.779 E.04208
G1 X105.362 Y89.652 E.00426
G1 X105.221 Y89.59 E.00483
G1 X95.41 Y89.59 E.30762
G1 X95.41 Y81.61 E.25021
G1 X105.221 Y81.61 E.30762
G1 X105.35 Y81.56 E.00434
M73 P3 R10
M73 Q3 S10
G1 X105.41 Y81.421 E.00475
G1 X105.41 Y80.079 E.04208
G1 X105.368 Y79.96 E.00396
G1 X105.221 Y79.89 E.0051
G1 X95.41 Y79.89 E.30762
G1 X95.41 Y71.91 E.25021
M73 P4 R10
M73 Q4 S10
G1 X105.221 Y71.91 E.30762
G1 X105.346 Y71.863 E.00419
G1 X105.41 Y71.721 E.00488
G1 X105.41 Y70.379 E.04208
G1 X105.351 Y70.242 E.00468
G1 X105.221 Y70.19 E.00439
G1 X95.41 Y70.19 E.30762
G1 X95.41 Y62.27 E.24833
M204 S1000
;WIPE_START
G1 F8640
G1 X95.41 Y62.21 E-.01385
G1 X98.815 Y62.21 E-.78615
;WIPE_END
G1 Z.6 F720
G1 X154.477 Y62.493 F10800
G1 Z.2 F720
G1 E.8 F2100
M204 S800
;TYPE:Solid infill
;WIDTH:0.420758
G1 F1200
G1 X95.693 Y62.493 E1.84684
G1 X95.693 Y62.871 E.01188
G1 X154.307 Y62.871 E1.8415
G1 X154.307 Y63.249 E.01188
M73 P5 R10
M73 Q5 S10
G1 X95.693 Y63.249 E1.8415
G1 X95.693 Y63.627 E.01188
G1 X154.307 Y63.627 E1.8415
G1 X154.307 Y64.005 E.01188
M73 P6 R10
M73 Q6 S10
G1 X95.693 Y64.005 E1.8415
G1 X95.693 Y64.382 E.01184
G1 X154.307 Y64.382 E1.8415
G1 X154.307 Y64.76 E.01188
M73 P7 R10
M73 Q7 S10
G1 X95.693 Y64.76 E1.8415
G1 X95.693 Y65.138 E.01188
G1 X154.307 Y65.138 E1.8415
G1 X154.307 Y65.516 E.01188
G1 X95.693 Y65.516 E1.8415
G1 X95.693 Y65.894 E.01188
M73 P8 R10
M73 Q8 S10
G1 X154.307 Y65.894 E1.8415
G1 X154.307 Y66.272 E.01188
G1 X95.693 Y66.272 E1.8415
G1 X95.693 Y66.649 E.01184
M73 P9 R10
M73 Q9 S10
G1 X154.307 Y66.649 E1.8415
G1 X154.307 Y67.027 E.01188
G1 X95.693 Y67.027 E1.8415
G1 X95.693 Y67.405 E.01188
M73 P10 R10
M73 Q10 S10
G1 X154.307 Y67.405 E1.8415
G1 X154.307 Y67.783 E.01188
G1 X95.693 Y67.783 E1.8415
G1 X95.693 Y68.161 E.01188
G1 X154.307 Y68.161 E1.8415
G1 X154.307 Y68.539 E.01188
M73 P11 R10
M73 Q11 S10
G1 X95.693 Y68.539 E1.8415
G1 X95.693 Y68.916 E.01184
G1 X154.307 Y68.916 E1.8415
G1 X154.307 Y69.294 E.01188
M73 P12 R10
M73 Q12 S10
G1 X95.693 Y69.294 E1.8415
G1 X95.693 Y69.672 E.01188
M73 P12 R9
M73 Q12 S9
G1 X154.307 Y69.672 E1.8415
G1 X154.307 Y70.05 E.01188
M73 P13 R9
M73 Q13 S9
G1 X105.558 Y70.05 E1.53156
G1 X105.638 Y70.155 E.00415
G1 X105.684 Y70.279 E.00416
G1 X105.684 Y70.428 E.00468
G1 X154.307 Y70.428 E1.52761
G1 X154.307 Y70.806 E.01188
G1 X105.687 Y70.806 E1.52751
G1 X105.689 Y71.184 E.01188
M73 P14 R9
M73 Q14 S9
G1 X154.307 Y71.184 E1.52745
G1 X154.307 Y71.561 E.01184
G1 X105.692 Y71.561 E1.52735
G1 X105.693 Y71.73 E.00531
G1 X105.66 Y71.899 E.00541
G1 X105.634 Y71.939 E.0015
G1 X154.307 Y71.939 E1.52918
G1 X154.307 Y72.317 E.01188
M73 P15 R9
M73 Q15 S9
G1 X95.693 Y72.317 E1.8415
G1 X95.693 Y72.695 E.01188
G1 X154.307 Y72.695 E1.8415
G1 X154.307 Y73.073 E.01188
M73 P16 R9
M73 Q16 S9
G1 X95.693 Y73.073 E1.8415
G1 X95.693 Y73.451 E.01188
G1 X154.307 Y73.451 E1.8415
G1 X154.307 Y73.828 E.01184
G1 X95.693 Y73.828 E1.8415
G1 X95.693 Y74.206 E.01188
M73 P17 R9
M73 Q17 S9
G1 X154.307 Y74.206 E1.8415
G1 X154.307 Y74.584 E.01188
G1 X95.693 Y74.584 E1.8415
G1 X95.693 Y74.962 E.01188
M73 P18 R9
M73 Q18 S9
G1 X154.307 Y74.962 E1.8415
G1 X154.307 Y75.34 E.01188
G1 X95.693 Y75.34 E1.8415
G1 X95.693 Y75.718 E.01188
M73 P19 R9
M73 Q19 S9
G1 X154.307 Y75.718 E1.8415
G1 X154.307 Y76.095 E.01184
G1 X95.693 Y76.095 E1.8415
G1 X95.693 Y76.473 E.01188
M73 Q20 S9
G1 X154.307 Y76.473 E1.8415
G1 X154.307 Y76.851 E.01188
M73 P20 R9
G1 X95.693 Y76.851 E1.8415
G1 X95.693 Y77.229 E.01188
G1 X154.307 Y77.229 E1.8415
G1 X154.307 Y77.607 E.01188
M73 P21 R9
M73 Q21 S9
G1 X95.693 Y77.607 E1.8415
G1 X95.693 Y77.985 E.01188
M73 P21 R8
M73 Q21 S8
G1 X154.307 Y77.985 E1.8415
G1 X154.307 Y78.362 E.01184
M73 P22 R8
M73 Q22 S8
G1 X95.693 Y78.362 E1.8415
G1 X95.693 Y78.74 E.01188
G1 X154.307 Y78.74 E1.8415
G1 X154.307 Y79.118 E.01188
M73 P23 R8
M73 Q23 S8
G1 X95.693 Y79.118 E1.8415
G1 X95.693 Y79.496 E.01188
G1 X154.307 Y79.496 E1.8415
G1 X154.307 Y79.874 E.01188
G1 X105.645 Y79.874 E1.52883
G1 X105.686 Y79.989 E.00384
M73 P24 R8
M73 Q24 S8
G1 X105.687 Y80.252 E.00826
G1 X154.307 Y80.252 E1.52751
G1 X154.307 Y80.629 E.01184
G1 X105.689 Y80.629 E1.52745
G1 X105.691 Y81.007 E.01188
G1 X154.307 Y81.007 E1.52739
G1 X154.307 Y81.385 E.01188
M73 P25 R8
M73 Q25 S8
G1 X105.693 Y81.385 E1.52732
G1 X105.653 Y81.615 E.00733
G1 X105.547 Y81.763 E.00572
G1 X154.307 Y81.763 E1.53191
G1 X154.307 Y82.141 E.01188
M73 P26 R8
M73 Q26 S8
G1 X95.693 Y82.141 E1.8415
G1 X95.693 Y82.519 E.01188
G1 X154.307 Y82.519 E1.8415
G1 X154.307 Y82.897 E.01188
G1 X95.693 Y82.896 E1.8415
G1 X95.693 Y83.274 E.01188
M73 P27 R8
M73 Q27 S8
G1 X154.307 Y83.274 E1.8415
G1 X154.307 Y83.652 E.01188
G1 X95.693 Y83.652 E1.8415
G1 X95.693 Y84.03 E.01188
M73 P28 R8
M73 Q28 S8
G1 X154.307 Y84.03 E1.8415
G1 X154.307 Y84.408 E.01188
G1 X95.693 Y84.408 E1.8415
G1 X95.693 Y84.786 E.01188
M73 P29 R8
M73 Q29 S8
G1 X154.307 Y84.786 E1.8415
G1 X154.307 Y85.164 E.01188
G1 X95.693 Y85.164 E1.8415
G1 X95.693 Y85.541 E.01184
G1 X154.307 Y85.541 E1.8415
G1 X154.307 Y85.919 E.01188
M73 P30 R7
M73 Q30 S7
G1 X95.693 Y85.919 E1.8415
G1 X95.693 Y86.297 E.01188
G1 X154.307 Y86.297 E1.8415
G1 X154.307 Y86.675 E.01188
M73 P31 R7
M73 Q31 S7
G1 X95.693 Y86.675 E1.8415
G1 X95.693 Y87.053 E.01188
G1 X154.307 Y87.053 E1.8415
G1 X154.307 Y87.431 E.01188
M73 P32 R7
M73 Q32 S7
G1 X95.693 Y87.431 E1.8415
G1 X95.693 Y87.808 E.01184
G1 X154.307 Y87.808 E1.8415
G1 X154.307 Y88.186 E.01188
G1 X95.693 Y88.186 E1.8415
G1 X95.693 Y88.564 E.01188
M73 P33 R7
M73 Q33 S7
G1 X154.307 Y88.564 E1.8415
G1 X154.307 Y88.942 E.01188
G1 X95.693 Y88.942 E1.8415
G1 X95.693 Y89.307 E.01147
M73 P34 R7
M73 Q34 S7
G1 X154.307 Y89.32 E1.8415
G1 X154.307 Y89.698 E.01188
G1 X105.687 Y89.698 E1.52751
G1 X105.688 Y90.075 E.01184
M73 P35 R7
M73 Q35 S7
G1 X154.307 Y90.075 E1.52748
G1 X154.307 Y90.453 E.01188
G1 X105.69 Y90.453 E1.52742
G1 X105.692 Y90.831 E.01188
G1 X154.307 Y90.831 E1.52735
G1 X154.307 Y91.209 E.01188
M73 P36 R7
M73 Q36 S7
G1 X105.676 Y91.209 E1.52786
G1 X105.653 Y91.316 E.00344
G1 X105.542 Y91.47 E.00596
G1 X105.386 Y91.565 E.00574
G1 X105.264 Y91.587 E.00389
G1 X154.307 Y91.587 E1.5408
G1 X154.307 Y91.965 E.01188
G1 X95.693 Y91.965 E1.8415
G1 X95.693 Y92.342 E.01184
M73 P37 R7
M73 Q37 S7
G1 X154.307 Y92.342 E1.8415
G1 X154.307 Y92.72 E.01188
G1 X95.693 Y92.72 E1.8415
G1 X95.693 Y93.098 E.01188
M73 P38 R7
M73 Q38 S7
G1 X154.307 Y93.098 E1.8415
G1 X154.307 Y93.476 E.01188
G1 X95.693 Y93.476 E1.8415
G1 X95.693 Y93.854 E.01188
M73 P39 R6
M73 Q39 S6
G1 X154.307 Y93.854 E1.8415
G1 X154.307 Y94.232 E.01188
G1 X95.693 Y94.232 E1.8415
G1 X95.693 Y94.609 E.01184
G1 X154.307 Y94.609 E1.8415
G1 X154.307 Y94.987 E.01188
M73 P40 R6
M73 Q40 S6
G1 X95.693 Y94.987 E1.8415
G1 X95.693 Y95.365 E.01188
G1 X154.307 Y95.365 E1.8415
G1 X154.307 Y95.743 E.01188
M73 P41 R6
M73 Q41 S6
G1 X95.693 Y95.743 E1.8415
G1 X95.693 Y96.121 E.01188
G1 X154.307 Y96.121 E1.8415
G1 X154.307 Y96.499 E.01188
M73 P42 R6
M73 Q42 S6
G1 X95.693 Y96.499 E1.8415
G1 X95.693 Y96.877 E.01188
G1 X154.307 Y96.877 E1.8415
G1 X154.307 Y97.254 E.01184
G1 X95.693 Y97.254 E1.8415
G1 X95.693 Y97.632 E.01188
M73 P43 R6
M73 Q43 S6
G1 X154.307 Y97.632 E1.8415
G1 X154.307 Y98.01 E.01188
G1 X95.693 Y98.01 E1.8415
G1 X95.693 Y98.388 E.01188
M73 P44 R6
M73 Q44 S6
G1 X154.307 Y98.388 E1.8415
G1 X154.307 Y98.766 E.01188
G1 X95.693 Y98.766 E1.8415
G1 X95.693 Y99.007 E.00757
M73 P45 R6
M73 Q45 S6
G1 X105.306 Y99.013 E.30202
G1 X105.448 Y99.064 E.00474
G1 X105.551 Y99.144 E.0041
G1 X154.307 Y99.144 E1.53178
G1 X154.307 Y99.521 E.01184
G1 X105.687 Y99.521 E1.52751
G1 X105.689 Y99.899 E.01188
G1 X154.307 Y99.899 E1.52745
G1 X154.307 Y100.277 E.01188
M73 P46 R6
M73 Q46 S6
G1 X105.69 Y100.277 E1.52742
G1 X105.692 Y100.655 E.01188
G1 X154.307 Y100.655 E1.52735
G1 X154.307 Y101.033 E.01188
G1 X105.641 Y101.033 E1.52896
G1 X105.542 Y101.17 E.00531
M73 P47 R6
M73 Q47 S6
G1 X105.386 Y101.265 E.00574
G1 X105.23 Y101.293 E.00498
G1 X95.693 Y101.293 E.29963
G1 X95.693 Y101.411 E.00371
G1 X154.307 Y101.411 E1.8415
G1 X154.307 Y101.788 E.01184
M73 P47 R5
M73 Q47 S5
G1 X95.693 Y101.788 E1.8415
G1 X95.693 Y102.166 E.01188
M73 P48 R5
M73 Q48 S5
G1 X154.307 Y102.166 E1.8415
G1 X154.307 Y102.544 E.01188
G1 X95.693 Y102.544 E1.8415
G1 X95.693 Y102.922 E.01188
M73 P49 R5
M73 Q49 S5
G1 X154.307 Y102.922 E1.8415
G1 X154.307 Y103.3 E.01188
G1 X95.693 Y103.3 E1.8415
G1 X95.693 Y103.678 E.01188
G1 X154.307 Y103.678 E1.8415
G1 X154.307 Y104.055 E.01184
M73 P50 R5
M73 Q50 S5
G1 X95.693 Y104.055 E1.8415
G1 X95.693 Y104.433 E.01188
G1 X154.307 Y104.433 E1.8415
G1 X154.307 Y104.811 E.01188
M73 P51 R5
M73 Q51 S5
G1 X95.693 Y104.811 E1.8415
G1 X95.693 Y105.189 E.01188
G1 X154.307 Y105.189 E1.8415
G1 X154.307 Y105.567 E.01188
M73 P52 R5
M73 Q52 S5
G1 X95.693 Y105.567 E1.8415
G1 X95.693 Y105.945 E.01188
G1 X154.307 Y105.945 E1.8415
G1 X154.307 Y106.322 E.01184
M73 Q53 S5
G1 X95.693 Y106.322 E1.8415
G1 X95.693 Y106.7 E.01188
M73 P53 R5
G1 X154.307 Y106.7 E1.8415
G1 X154.307 Y107.078 E.01188
G1 X95.693 Y107.078 E1.8415
G1 X95.693 Y107.456 E.01188
M73 P54 R5
M73 Q54 S5
G1 X154.307 Y107.456 E1.8415
G1 X154.307 Y107.834 E.01188
G1 X95.693 Y107.834 E1.8415
G1 X95.693 Y108.212 E.01188
M73 P55 R5
M73 Q55 S5
G1 X154.307 Y108.212 E1.8415
G1 X154.307 Y108.589 E.01184
G1 X95.693 Y108.589 E1.8415
G1 X95.693 Y108.707 E.00371
M73 P56 R5
M73 Q56 S5
G1 X105.306 Y108.713 E.30202
G1 X105.448 Y108.764 E.00474
G1 X105.543 Y108.832 E.00367
G1 X105.642 Y108.967 E.00526
G1 X154.307 Y108.967 E1.52893
G1 X154.307 Y109.345 E.01188
M73 P56 R4
M73 Q56 S4
G1 X105.688 Y109.345 E1.52748
G1 X105.689 Y109.723 E.01188
G1 X154.307 Y109.723 E1.52745
G1 X154.307 Y110.101 E.01188
M73 P57 R4
M73 Q57 S4
G1 X105.691 Y110.101 E1.52739
G1 X105.693 Y110.479 E.01188
G1 X154.307 Y110.479 E1.52732
G1 X154.307 Y110.857 E.01188
G1 X105.551 Y110.857 E1.53178
G1 X105.386 Y110.965 E.0062
M73 P58 R4
M73 Q58 S4
G1 X105.23 Y110.993 E.00498
G1 X95.693 Y110.993 E.29963
G1 X95.693 Y111.234 E.00757
G1 X154.307 Y111.234 E1.8415
G1 X154.307 Y111.612 E.01188
G1 X95.693 Y111.612 E1.8415
G1 X95.693 Y111.99 E.01188
M73 P59 R4
M73 Q59 S4
G1 X154.307 Y111.99 E1.8415
G1 X154.307 Y112.368 E.01188
G1 X95.693 Y112.368 E1.8415
G1 X95.693 Y112.746 E.01188
M73 P60 R4
M73 Q60 S4
G1 X154.307 Y112.746 E1.8415
G1 X154.307 Y113.124 E.01188
G1 X95.693 Y113.124 E1.8415
G1 X95.693 Y113.501 E.01184
G1 X154.307 Y113.501 E1.8415
G1 X154.307 Y113.879 E.01188
M73 P61 R4
M73 Q61 S4
G1 X95.693 Y113.879 E1.8415
G1 X95.693 Y114.257 E.01188
G1 X154.307 Y114.257 E1.8415
G1 X154.307 Y114.635 E.01188
M73 P62 R4
M73 Q62 S4
G1 X95.693 Y114.635 E1.8415
G1 X95.693 Y115.013 E.01188
G1 X154.307 Y115.013 E1.8415
G1 X154.307 Y115.391 E.01188
M73 P63 R4
M73 Q63 S4
G1 X95.693 Y115.391 E1.8415
G1 X95.693 Y115.768 E.01184
G1 X154.307 Y115.768 E1.8415
G1 X154.307 Y116.146 E.01188
G1 X95.693 Y116.146 E1.8415
G1 X95.693 Y116.524 E.01188
M73 P64 R4
M73 Q64 S4
G1 X154.307 Y116.524 E1.8415
G1 X154.307 Y116.902 E.01188
G1 X95.693 Y116.902 E1.8415
G1 X95.693 Y117.28 E.01188
M73 P65 R3
M73 Q65 S3
G1 X154.307 Y117.28 E1.8415
G1 X154.307 Y117.658 E.01188
G1 X95.693 Y117.658 E1.8415
G1 X95.693 Y118.035 E.01184
M73 P66 R3
M73 Q66 S3
G1 X154.307 Y118.035 E1.8415
G1 X154.307 Y118.413 E.01188
G1 X105.074 Y118.413 E1.54677
G1 X105.306 Y118.413 E.00729
G1 X105.448 Y118.464 E.00474
G1 X105.543 Y118.532 E.00367
G1 X105.637 Y118.653 E.00481
G1 X105.685 Y118.791 E.00459
G1 X154.307 Y118.791 E1.52757
G1 X154.307 Y119.169 E.01188
M73 P67 R3
M73 Q67 S3
G1 X105.688 Y119.169 E1.52748
G1 X105.69 Y119.547 E.01188
G1 X154.307 Y119.547 E1.52742
G1 X154.307 Y119.925 E.01188
M73 Q68 S3
G1 X105.692 Y119.925 E1.52735
G1 X105.693 Y120.231 E.00961
M73 P68 R3
G1 X105.678 Y120.302 E.00228
G1 X154.307 Y120.302 E1.52779
G1 X154.307 Y120.68 E.01188
G1 X95.693 Y120.693 E1.8415
G1 X95.693 Y121.058 E.01147
M73 P69 R3
M73 Q69 S3
G1 X154.307 Y121.058 E1.8415
G1 X154.307 Y121.436 E.01188
G1 X95.693 Y121.436 E1.8415
G1 X95.693 Y121.814 E.01188
M73 P70 R3
M73 Q70 S3
G1 X154.307 Y121.814 E1.8415
G1 X154.307 Y122.192 E.01188
G1 X95.693 Y122.192 E1.8415
G1 X95.693 Y122.569 E.01184
G1 X154.307 Y122.569 E1.8415
G1 X154.307 Y122.947 E.01188
M73 P71 R3
M73 Q71 S3
G1 X95.693 Y122.947 E1.8415
G1 X95.693 Y123.325 E.01188
G1 X154.307 Y123.325 E1.8415
G1 X154.307 Y123.703 E.01188
M73 P72 R3
M73 Q72 S3
G1 X95.693 Y123.703 E1.8415
G1 X95.693 Y124.081 E.01188
G1 X154.307 Y124.081 E1.8415
G1 X154.307 Y124.459 E.01188
M73 P73 R3
M73 Q73 S3
G1 X95.693 Y124.459 E1.8415
G1 X95.693 Y124.837 E.01188
G1 X154.307 Y124.837 E1.8415
G1 X154.307 Y125.214 E.01184
M73 P73 R2
M73 Q73 S2
G1 X95.693 Y125.214 E1.8415
G1 X95.693 Y125.592 E.01188
M73 P74 R2
M73 Q74 S2
G1 X154.307 Y125.592 E1.8415
G1 X154.307 Y125.97 E.01188
G1 X95.693 Y125.97 E1.8415
