; generated by PrusaSlicer 2.7.1+linux-x64-GTK3 on 2024-01-11 at 20:56:31 UTC


;
;

;
;

;
;

;
;
; 

; external perimeters extrusion width = 0.45mm
; perimeters extrusion width = 0.45mm
; infill extrusion width = 0.45mm
; solid infill extrusion width = 0.45mm
; top infill extrusion width = 0.42mm
; first layer extrusion width = 0.50mm

M73 P0 R6
M201 X4000 Y4000 Z400 E5000 ; sets maximum accelerations, mm/sec^2
M203 X400 Y400 Z12 E80 ; sets maximum feedrates, mm / sec
M204 P4000 R1250 T4000 ; sets acceleration (P, T) and retract acceleration (R), mm/sec^2
M205 X8.00 Y8.00 Z2.00 E10.00 ; sets the jerk limits, mm/sec
M205 S0 T0 ; sets the minimum extruding and travel feed rate, mm/sec

M486 S0
M486 AFirstLayerCalibration-FirstLayer.stl
M486 S-1

;TYPE:Custom
M862.3 P "MINI" ; printer model check
M862.1 P0.4 ; nozzle diameter check
M862.5 P2 ; g-code level check
M862.6 P"Input shaper" ; FW feature check
M115 U5.1.2+13478
G90 ; use absolute coordinates
M83 ; extruder relative mode
M104 S170 ; set extruder temp for bed leveling
M140 S85 ; set bed temp
M109 R170 ; wait for bed leveling temp
M190 S85 ; wait for bed temp
M569 S1 X Y ; set stealthchop for X Y
M204 T1250 ; set travel acceleration
G28 ; home all without mesh bed level
G29 ; mesh bed leveling 
M104 S240 ; set extruder temp
G92 E0

G1 X0 Y-2 Z3 F2400

M109 S240 ; wait for extruder temp

; intro line
G1 X10 Z0.2 F1000
G1 X70 E8 F900
G1 X140 E10 F700
M73 P1 R6
G92 E0

M569 S0 X Y ; set spreadcycle for X Y
M204 T4000 ; restore travel acceleration
M572 W0.06 ; set smooth time
M221 S95 ; set flow
G21 ; set units to millimeters
G90 ; use absolute coordinates
M83 ; use relative distances for extrusion
M572 S0.4
M107
;LAYER_CHANGE
;Z:0.2
;HEIGHT:0.2
;BEFORE_LAYER_CHANGE
G92 E0.0
;0.2
M201 X4000 Y4000
M74 W0

G1 E-2.5 F2700
M73 P2 R6
G1 Z.2 F720
;AFTER_LAYER_CHANGE
;0.2
M486 S0
G1 X70.45 Y114.921 F24000
G1 Z.2 F720
G1 E2.5 F1500
M204 P500
;TYPE:External perimeter
;WIDTH:0.499999
G1 F1800
G1 X70.45 Y113.57 E.05135
G1 X70.377 Y113.411 E.00665
G1 X70.221 Y113.35 E.00637
G1 X60.45 Y113.35 E.37136
G1 X60.45 Y105.45 E.30025
M73 P3 R6
G1 X70.221 Y105.45 E.37136
G2 X70.391 Y105.374 I-.059 J-.363 E.00716
G1 X70.45 Y105.221 E.00623
G1 X70.45 Y103.871 E.05131
G1 X70.376 Y103.71 E.00673
G1 X70.221 Y103.65 E.00632
G1 X60.45 Y103.65 E.37136
G1 X60.45 Y95.75 E.30025
G1 X70.221 Y95.75 E.37136
G2 X70.391 Y95.675 I-.059 J-.364 E.00714
G1 X70.45 Y95.521 E.00627
G1 X70.45 Y94.171 E.05131
G1 X70.376 Y94.01 E.00673
G1 X70.221 Y93.95 E.00632
G1 X60.45 Y93.95 E.37136
G1 X60.45 Y86.05 E.30025
G1 X70.221 Y86.05 E.37136
G2 X70.391 Y85.975 I-.059 J-.364 E.00714
G1 X70.45 Y85.821 E.00627
G1 X70.45 Y84.471 E.05131
G1 X70.376 Y84.31 E.00673
G1 X70.221 Y84.25 E.00632
G1 X60.45 Y84.25 E.37136
G1 X60.45 Y76.35 E.30025
G1 X70.221 Y76.35 E.37136
G2 X70.391 Y76.275 I-.059 J-.364 E.00714
M73 P4 R6
G1 X70.45 Y76.121 E.00627
G1 X70.45 Y74.772 E.05127
G1 X70.377 Y74.611 E.00672
G1 X70.221 Y74.55 E.00637
G1 X60.45 Y74.55 E.37136
G1 X60.45 Y66.65 E.30025
G1 X70.221 Y66.65 E.37136
G2 X70.391 Y66.574 I-.059 J-.363 E.00716
G1 X70.45 Y66.421 E.00623
G1 X70.45 Y65.079 E.051
G1 X70.387 Y64.921 E.00646
G1 X70.221 Y64.85 E.00686
G1 X60.45 Y64.85 E.37136
G1 X60.45 Y56.95 E.30025
G1 X70.221 Y56.95 E.37136
G1 X70.387 Y56.879 E.00686
G1 X70.45 Y56.721 E.00646
G1 X70.45 Y55.379 E.051
G1 X70.379 Y55.213 E.00686
G1 X70.221 Y55.15 E.00646
G1 X60.45 Y55.15 E.37136
G1 X60.45 Y47.25 E.30025
G1 X119.55 Y47.25 E2.24617
G1 X119.55 Y71.885 E.93628
M73 P5 R6
G1 X119.55 Y132.75 E2.31325
G1 X60.45 Y132.75 E2.24617
G1 X60.45 Y124.85 E.30025
M73 P6 R6
G1 X70.221 Y124.85 E.37136
G1 X70.379 Y124.787 E.00646
G1 X70.45 Y124.621 E.00686
G1 X70.45 Y123.279 E.051
G1 X70.387 Y123.121 E.00646
G1 X70.221 Y123.05 E.00686
G1 X60.45 Y123.05 E.37136
G1 X60.45 Y115.15 E.30025
G1 X70.221 Y115.15 E.37136
G1 X70.387 Y115.079 E.00686
G1 X70.428 Y114.977 E.00418
M204 P2000
G1 E-2.5 F2700
M204 T4000
G1 X70.428 Y114.977 Z.4 F24010.798
G1 X119.367 Y47.639 F24000
G1 Z.2 F720
M73 P7 R6
G1 E2.5 F1500
M204 P500
;TYPE:Solid infill
;WIDTH:0.500877
G1 F1800
G1 X60.839 Y47.639 E2.2287
G1 X60.839 Y48.097 E.01744
G1 X119.161 Y48.097 E2.22086
G1 X119.161 Y48.555 E.01744
M73 P8 R6
G1 X60.839 Y48.555 E2.22086
G1 X60.839 Y49.013 E.01744
G1 X119.161 Y49.013 E2.22086
G1 X119.161 Y49.471 E.01744
M73 P9 R5
G1 X60.839 Y49.471 E2.22086
G1 X60.839 Y49.929 E.01744
G1 X119.161 Y49.929 E2.22086
G1 X119.161 Y50.387 E.01744
M73 P10 R5
G1 X60.839 Y50.387 E2.22086
G1 X60.839 Y50.845 E.01744
G1 X119.161 Y50.845 E2.22086
G1 X119.161 Y51.303 E.01744
M73 P11 R5
G1 X60.839 Y51.303 E2.22086
G1 X60.839 Y51.761 E.01744
G1 X119.161 Y51.761 E2.22086
G1 X119.161 Y52.219 E.01744
M73 P12 R5
G1 X60.839 Y52.219 E2.22086
G1 X60.839 Y52.677 E.01744
G1 X119.161 Y52.677 E2.22086
G1 X119.161 Y53.134 E.0174
M73 P13 R5
G1 X60.839 Y53.134 E2.22086
G1 X60.839 Y53.592 E.01744
G1 X119.161 Y53.592 E2.22086
G1 X119.161 Y54.05 E.01744
M73 P14 R5
G1 X60.839 Y54.05 E2.22086
G1 X60.839 Y54.508 E.01744
G1 X119.161 Y54.508 E2.22086
G1 X119.161 Y54.966 E.01744
M73 P15 R5
G1 X70.676 Y54.966 E1.84627
G3 X70.839 Y55.424 I-.462 J.422 E.01901
G1 X119.161 Y55.424 E1.84007
G1 X119.161 Y55.882 E.01744
M73 P16 R5
G1 X70.839 Y55.882 E1.84007
G1 X70.839 Y56.34 E.01744
G1 X119.161 Y56.34 E1.84007
G1 X119.161 Y56.798 E.01744
G1 X70.833 Y56.798 E1.8403
G3 X70.522 Y57.256 I-.601 J-.073 E.0219
M73 P17 R5
G1 X119.161 Y57.256 E1.85214
G1 X119.161 Y57.714 E.01744
G1 X60.839 Y57.714 E2.22086
G1 X60.839 Y58.172 E.01744
M73 P18 R5
G1 X119.161 Y58.172 E2.22086
G1 X119.161 Y58.63 E.01744
G1 X60.839 Y58.63 E2.22086
G1 X60.839 Y59.088 E.01744
M73 P19 R5
G1 X119.161 Y59.088 E2.22086
G1 X119.161 Y59.546 E.01744
G1 X60.839 Y59.546 E2.22086
G1 X60.839 Y60.004 E.01744
M73 P20 R5
G1 X119.161 Y60.004 E2.22086
G1 X119.161 Y60.462 E.01744
G1 X60.839 Y60.462 E2.22086
G1 X60.839 Y60.92 E.01744
M73 P21 R5
G1 X119.161 Y60.92 E2.22086
G1 X119.161 Y61.378 E.01744
G1 X60.839 Y61.378 E2.22086
G1 X60.839 Y61.836 E.01744
M73 P22 R5
G1 X119.161 Y61.836 E2.22086
G1 X119.161 Y62.294 E.01744
G1 X60.839 Y62.294 E2.22086
G1 X60.839 Y62.752 E.01744
M73 P23 R5
G1 X119.161 Y62.752 E2.22086
G1 X119.161 Y63.21 E.01744
G1 X60.839 Y63.21 E2.22086
G1 X60.839 Y63.668 E.01744
M73 P24 R4
G1 X119.161 Y63.668 E2.22086
G1 X119.161 Y64.125 E.0174
G1 X60.839 Y64.125 E2.22086
G1 X60.839 Y64.462 E.01283
M73 P25 R4
G1 X70.327 Y64.468 E.3613
G3 X70.58 Y64.583 I-.114 J.587 E.01068
G1 X119.161 Y64.583 E1.84993
G1 X119.161 Y65.041 E.01744
G1 X70.836 Y65.041 E1.84018
G1 X70.839 Y65.499 E.01744
M73 P26 R4
G1 X119.161 Y65.499 E1.84007
G1 X119.161 Y65.957 E.01744
G1 X70.839 Y65.957 E1.84007
G1 X70.839 Y66.415 E.01744
M73 P27 R4
G1 X119.161 Y66.415 E1.84007
G1 X119.161 Y66.873 E.01744
G1 X70.643 Y66.873 E1.84753
G3 X70.236 Y67.039 I-.435 J-.487 E.01707
M73 P28 R4
G1 X60.839 Y67.039 E.35783
G1 X60.839 Y67.331 E.01112
G1 X119.161 Y67.331 E2.22086
G1 X119.161 Y67.789 E.01744
G1 X60.839 Y67.789 E2.22086
G1 X60.839 Y68.247 E.01744
M73 P29 R4
G1 X119.161 Y68.247 E2.22086
G1 X119.161 Y68.705 E.01744
G1 X60.839 Y68.705 E2.22086
G1 X60.839 Y69.163 E.01744
M73 P30 R4
G1 X119.161 Y69.163 E2.22086
G1 X119.161 Y69.621 E.01744
G1 X60.839 Y69.621 E2.22086
G1 X60.839 Y70.079 E.01744
M73 P31 R4
G1 X119.161 Y70.079 E2.22086
G1 X119.161 Y70.537 E.01744
G1 X60.839 Y70.537 E2.22086
G1 X60.839 Y70.995 E.01744
M73 P32 R4
G1 X119.161 Y70.995 E2.22086
G1 X119.161 Y71.453 E.01744
G1 X60.839 Y71.453 E2.22086
G1 X60.839 Y71.911 E.01744
M73 P33 R4
G1 X119.161 Y71.911 E2.22086
G1 X119.161 Y72.369 E.01744
G1 X60.839 Y72.369 E2.22086
G1 X60.839 Y72.827 E.01744
M73 P34 R4
G1 X119.161 Y72.827 E2.22086
G1 X119.161 Y73.285 E.01744
G1 X60.839 Y73.285 E2.22086
G1 X60.839 Y73.743 E.01744
M73 P35 R4
G1 X119.161 Y73.743 E2.22086
G1 X119.161 Y74.201 E.01744
G1 X70.438 Y74.201 E1.85534
G3 X70.827 Y74.658 I-.224 J.583 E.02383
M73 P36 R4
G1 X119.161 Y74.658 E1.84052
G1 X119.161 Y75.116 E.01744
G1 X70.839 Y75.116 E1.84007
G1 X70.839 Y75.574 E.01744
M73 P37 R4
G1 X119.161 Y75.574 E1.84007
G1 X119.161 Y76.032 E.01744
G1 X70.839 Y76.032 E1.84007
G3 X70.709 Y76.49 I-.638 J.067 E.01857
G1 X119.161 Y76.49 E1.84502
G1 X119.161 Y76.948 E.01744
M73 P38 R4
G1 X60.839 Y76.948 E2.22086
G1 X60.839 Y77.406 E.01744
G1 X119.161 Y77.406 E2.22086
G1 X119.161 Y77.864 E.01744
M73 P39 R3
G1 X60.839 Y77.864 E2.22086
G1 X60.839 Y78.322 E.01744
G1 X119.161 Y78.322 E2.22086
G1 X119.161 Y78.78 E.01744
M73 P40 R3
G1 X60.839 Y78.78 E2.22086
G1 X60.839 Y79.238 E.01744
G1 X119.161 Y79.238 E2.22086
G1 X119.161 Y79.696 E.01744
M73 P41 R3
G1 X60.839 Y79.696 E2.22086
G1 X60.839 Y80.154 E.01744
G1 X119.161 Y80.154 E2.22086
G1 X119.161 Y80.612 E.01744
M73 P42 R3
G1 X60.839 Y80.612 E2.22086
G1 X60.839 Y81.07 E.01744
G1 X119.161 Y81.07 E2.22086
M73 P43 R3
G1 X119.161 Y81.528 E.01744
G1 X60.839 Y81.528 E2.22086
G1 X60.839 Y81.986 E.01744
M73 P44 R3
G1 X119.161 Y81.986 E2.22086
G1 X119.161 Y82.444 E.01744
G1 X60.839 Y82.444 E2.22086
G1 X60.839 Y82.902 E.01744
M73 P45 R3
G1 X119.161 Y82.902 E2.22086
G1 X119.161 Y83.36 E.01744
G1 X60.839 Y83.36 E2.22086
G1 X60.839 Y83.818 E.01744
M73 P46 R3
G1 X119.161 Y83.818 E2.22086
G1 X119.161 Y84.276 E.01744
G1 X70.799 Y84.276 E1.84159
G3 X70.839 Y84.734 I-1.092 J.324 E.01763
M73 P47 R3
G1 X119.161 Y84.734 E1.84007
G1 X119.161 Y85.191 E.0174
G1 X70.839 Y85.191 E1.84007
G1 X70.839 Y85.649 E.01744
G1 X119.161 Y85.649 E1.84007
G1 X119.161 Y86.107 E.01744
M73 P48 R3
G1 X70.767 Y86.107 E1.84281
G3 X70.236 Y86.439 I-.549 J-.288 E.025
G1 X60.839 Y86.439 E.35783
G1 X60.839 Y86.565 E.0048
G1 X119.161 Y86.565 E2.22086
G1 X119.161 Y87.023 E.01744
M73 P49 R3
G1 X60.839 Y87.023 E2.22086
G1 X60.839 Y87.481 E.01744
G1 X119.161 Y87.481 E2.22086
G1 X119.161 Y87.939 E.01744
M73 P50 R3
G1 X60.839 Y87.939 E2.22086
G1 X60.839 Y88.397 E.01744
G1 X119.161 Y88.397 E2.22086
G1 X119.161 Y88.855 E.01744
M73 P51 R3
G1 X60.839 Y88.855 E2.22086
G1 X60.839 Y89.313 E.01744
G1 X119.161 Y89.313 E2.22086
G1 X119.161 Y89.771 E.01744
M73 P52 R3
G1 X60.839 Y89.771 E2.22086
G1 X60.839 Y90.229 E.01744
G1 X119.161 Y90.229 E2.22086
G1 X119.161 Y90.687 E.01744
M73 P53 R3
G1 X60.839 Y90.687 E2.22086
G1 X60.839 Y91.145 E.01744
G1 X119.161 Y91.145 E2.22086
G1 X119.161 Y91.603 E.01744
M73 P54 R3
G1 X60.839 Y91.603 E2.22086
G1 X60.839 Y92.061 E.01744
M73 P54 R2
G1 X119.161 Y92.061 E2.22086
G1 X119.161 Y92.519 E.01744
M73 P55 R2
G1 X60.839 Y92.519 E2.22086
G1 X60.839 Y92.977 E.01744
G1 X119.161 Y92.977 E2.22086
G1 X119.161 Y93.435 E.01744
M73 P56 R2
G1 X60.839 Y93.435 E2.22086
G1 X60.839 Y93.562 E.00484
G1 X70.332 Y93.569 E.36149
G3 X70.769 Y93.893 I-.136 J.64 E.02136
M73 P57 R2
G1 X119.161 Y93.893 E1.84273
G1 X119.161 Y94.351 E.01744
G1 X70.839 Y94.351 E1.84007
G1 X70.839 Y94.809 E.01744
G1 X119.161 Y94.809 E1.84007
G1 X119.161 Y95.267 E.01744
M73 P58 R2
G1 X70.839 Y95.267 E1.84007
G3 X70.825 Y95.653 I-2.422 J.11 E.01472
G1 X70.802 Y95.724 E.00284
G1 X119.161 Y95.724 E1.84148
G1 X119.161 Y96.182 E.01744
M73 P59 R2
G1 X60.839 Y96.182 E2.22086
G1 X60.839 Y96.64 E.01744
G1 X119.161 Y96.64 E2.22086
G1 X119.161 Y97.098 E.01744
M73 P60 R2
G1 X60.839 Y97.098 E2.22086
G1 X60.839 Y97.556 E.01744
G1 X119.161 Y97.556 E2.22086
G1 X119.161 Y98.014 E.01744
M73 P61 R2
G1 X60.839 Y98.014 E2.22086
G1 X60.839 Y98.472 E.01744
G1 X119.161 Y98.472 E2.22086
G1 X119.161 Y98.93 E.01744
M73 P62 R2
G1 X60.839 Y98.93 E2.22086
G1 X60.839 Y99.388 E.01744
G1 X119.161 Y99.388 E2.22086
G1 X119.161 Y99.846 E.01744
M73 P63 R2
G1 X60.839 Y99.846 E2.22086
G1 X60.839 Y100.304 E.01744
G1 X119.161 Y100.304 E2.22086
G1 X119.161 Y100.762 E.01744
M73 P64 R2
G1 X60.839 Y100.762 E2.22086
G1 X60.839 Y101.22 E.01744
G1 X119.161 Y101.22 E2.22086
G1 X119.161 Y101.678 E.01744
M73 P65 R2
G1 X60.839 Y101.678 E2.22086
G1 X60.839 Y102.136 E.01744
G1 X119.161 Y102.136 E2.22086
G1 X119.161 Y102.594 E.01744
M73 P66 R2
G1 X60.839 Y102.594 E2.22086
G1 X60.839 Y103.052 E.01744
G1 X119.161 Y103.052 E2.22086
G1 X119.161 Y103.51 E.01744
M73 P67 R2
G1 X70.709 Y103.51 E1.84502
G3 X70.839 Y103.968 I-.508 J.391 E.01857
G1 X119.161 Y103.968 E1.84007
G1 X119.161 Y104.426 E.01744
M73 P68 R2
G1 X70.839 Y104.426 E1.84007
G1 X70.839 Y104.884 E.01744
G1 X119.161 Y104.884 E1.84007
G1 X119.161 Y105.342 E.01744
M73 P69 R2
G1 X70.827 Y105.342 E1.84052
G3 X70.438 Y105.8 I-.613 J-.127 E.02387
G1 X119.161 Y105.8 E1.85534
G1 X119.161 Y106.258 E.01744
M73 P69 R1
G1 X60.839 Y106.258 E2.22086
G1 X60.839 Y106.715 E.0174
M73 P70 R1
G1 X119.161 Y106.715 E2.22086
G1 X119.161 Y107.173 E.01744
G1 X60.839 Y107.173 E2.22086
G1 X60.839 Y107.631 E.01744
M73 P71 R1
G1 X119.161 Y107.631 E2.22086
G1 X119.161 Y108.089 E.01744
G1 X60.839 Y108.089 E2.22086
G1 X60.839 Y108.547 E.01744
M73 P72 R1
G1 X119.161 Y108.547 E2.22086
G1 X119.161 Y109.005 E.01744
G1 X60.839 Y109.005 E2.22086
G1 X60.839 Y109.463 E.01744
M73 P73 R1
G1 X119.161 Y109.463 E2.22086
G1 X119.161 Y109.921 E.01744
G1 X60.839 Y109.921 E2.22086
G1 X60.839 Y110.379 E.01744
M73 P74 R1
G1 X119.161 Y110.379 E2.22086
G1 X119.161 Y110.837 E.01744
M73 P75 R1
G1 X60.839 Y110.837 E2.22086
G1 X60.839 Y111.295 E.01744
G1 X119.161 Y111.295 E2.22086
G1 X119.161 Y111.753 E.01744
M73 P76 R1
G1 X60.839 Y111.753 E2.22086
G1 X60.839 Y112.211 E.01744
G1 X119.161 Y112.211 E2.22086
G1 X119.161 Y112.669 E.01744
M73 P77 R1
G1 X60.839 Y112.669 E2.22086
G1 X60.839 Y112.962 E.01116
G1 X70.333 Y112.969 E.36152
G3 X70.644 Y113.127 I-.181 J.744 E.0134
G1 X119.161 Y113.127 E1.84749
G1 X119.161 Y113.585 E.01744
M73 P78 R1
G1 X70.839 Y113.585 E1.84007
G1 X70.839 Y114.043 E.01744
G1 X119.161 Y114.043 E1.84007
G1 X119.161 Y114.501 E.01744
G1 X70.839 Y114.501 E1.84007
G1 X70.836 Y114.959 E.01744
M73 P79 R1
G1 X119.161 Y114.959 E1.84018
G1 X119.161 Y115.417 E.01744
G1 X70.589 Y115.417 E1.84959
G3 X70.235 Y115.539 I-.387 J-.55 E.01445
M73 P80 R1
G1 X60.839 Y115.539 E.35779
G1 X60.839 Y115.875 E.01279
G1 X119.161 Y115.875 E2.22086
G1 X119.161 Y116.333 E.01744
G1 X60.839 Y116.333 E2.22086
G1 X60.839 Y116.791 E.01744
M73 P81 R1
G1 X119.161 Y116.791 E2.22086
G1 X119.161 Y117.248 E.0174
G1 X60.839 Y117.248 E2.22086
G1 X60.839 Y117.706 E.01744
M73 P82 R1
G1 X119.161 Y117.706 E2.22086
G1 X119.161 Y118.164 E.01744
G1 X60.839 Y118.164 E2.22086
G1 X60.839 Y118.622 E.01744
M73 P83 R1
G1 X119.161 Y118.622 E2.22086
G1 X119.161 Y119.08 E.01744
G1 X60.839 Y119.08 E2.22086
G1 X60.839 Y119.538 E.01744
M73 P84 R1
G1 X119.161 Y119.538 E2.22086
G1 X119.161 Y119.996 E.01744
G1 X60.839 Y119.996 E2.22086
G1 X60.839 Y120.454 E.01744
M73 P85 R0
G1 X119.161 Y120.454 E2.22086
G1 X119.161 Y120.912 E.01744
G1 X60.839 Y120.912 E2.22086
G1 X60.839 Y121.37 E.01744
M73 P86 R0
G1 X119.161 Y121.37 E2.22086
G1 X119.161 Y121.828 E.01744
G1 X60.839 Y121.828 E2.22086
G1 X60.839 Y122.286 E.01744
M73 P87 R0
G1 X119.161 Y122.286 E2.22086
G1 X119.161 Y122.744 E.01744
G1 X70.528 Y122.744 E1.85191
G3 X70.83 Y123.202 I-.303 J.529 E.02167
M73 P88 R0
G1 X119.161 Y123.202 E1.84041
G1 X119.161 Y123.66 E.01744
G1 X70.839 Y123.66 E1.84007
G1 X70.839 Y124.118 E.01744
M73 P89 R0
G1 X119.161 Y124.118 E1.84007
G1 X119.161 Y124.576 E.01744
G1 X70.839 Y124.576 E1.84007
G3 X70.678 Y125.034 I-.65 J.03 E.01895
M73 P90 R0
G1 X119.161 Y125.034 E1.8462
G1 X119.161 Y125.492 E.01744
G1 X60.839 Y125.492 E2.22086
G1 X60.839 Y125.95 E.01744
M73 P91 R0
G1 X119.161 Y125.95 E2.22086
G1 X119.161 Y126.408 E.01744
G1 X60.839 Y126.408 E2.22086
G1 X60.839 Y126.866 E.01744
M73 P92 R0
G1 X119.161 Y126.866 E2.22086
G1 X119.161 Y127.324 E.01744
G1 X60.839 Y127.324 E2.22086
G1 X60.839 Y127.781 E.0174
M73 P93 R0
G1 X119.161 Y127.781 E2.22086
G1 X119.161 Y128.239 E.01744
G1 X60.839 Y128.239 E2.22086
G1 X60.839 Y128.697 E.01744
M73 P94 R0
G1 X119.161 Y128.697 E2.22086
G1 X119.161 Y129.155 E.01744
G1 X60.839 Y129.155 E2.22086
G1 X60.839 Y129.613 E.01744
M73 P95 R0
G1 X119.161 Y129.613 E2.22086
G1 X119.161 Y130.071 E.01744
G1 X60.839 Y130.071 E2.22086
G1 X60.839 Y130.529 E.01744
M73 P96 R0
G1 X119.161 Y130.529 E2.22086
G1 X119.161 Y130.987 E.01744
G1 X60.839 Y130.987 E2.22086
G1 X60.839 Y131.445 E.01744
M73 P97 R0
